!!!!SEGMENT: pl-kk--kk-i-7--004_anonim--mittit-ad-virginem.krn
!!!cenid: 16xx:794
!!!COM: Anonim
!!!COM-rismID: pe30004985
!!!CDT:
!!!CNT:
!!!OTL: Mittit ad virginem
!!!PDT:
!!!AGN: Sacred
!!!YEC: Copyright 2022 Narodowy Instytut Fryderyka Chopina (https://polishscores.org)
!!!YEM: License CC-BY-4.0 (https://creativecommons.org/licenses/by/4.0)
!!!SMS-siglum: PL-Kk
!!!SMS-shelfmark: Kk.I.7
!!!SMS-shelfwork: 004 W
!!!SMS-variant:
!!!SMS-altvar:
!!!NIFC-rismSourceID: 300258077
!!!NIFC-rismChildID: 300258081
!!!NIFC-islandoraID: pl-kk:1956
!!!URL-pdf-islandora: https://repozytorium.nifc.pl/islandora/object/pl-kk%3A1956/datastream/PDF/view
!!!URL-scan: https://polish.musicsources.pl/pl/lokalizacje/galeria/rekopisy/6140 @EN{Scan on Polish Music Sources Website} @PL{Skany w portalu Dziedzictwo Muzyki Polskiej w otwartym dostępie}
!!!IIIF: https://repozytorium.nifc.pl/islandora/object/pl-kk%3A1956/datastream/IIIF/view
!!!ONB-nifc: UWAGA: A (skan 0005-0006, s. 4-6), T I (0092-0093, s.4-6), T II (0169-0170, 3-5), B(0257-0258, s.4-6). Następny utwór: Ave Hierarchia
!!!AIN: 1 alto 1 empty 2 tenor
!!!key:
**kern	**text	**kern	**text	**kern	**text	**kern	**text
*part4	*	*part3	*	*part2	*	*part1	*
*staff4	*	*staff3	*	*staff2	*	*staff1	*
*Iempty	*	*Itenor	*	*Itenor	*	*Ialto	*
*I"[Basso]	*	*I"[Tenore II]	*	*I"[Tenore I]	*	*I"[Alto]	*
*I'[B]	*	*I'[T II]	*	*I'[T I]	*	*I'[A]	*
*clefF4	*	*clefC4	*	*clefC4	*	*clefC3	*
*k[b-]	*	*k[b-]	*	*k[b-]	*	*k[b-]	*
*F:	*	*F:	*	*F:	*	*F:	*
*M2/1	*	*M2/1	*	*M2/1	*	*M2/1	*
*met(C|)	*	*met(C|)	*	*met(C|)	*	*met(C|)	*
=1	=1	=1	=1	=1	=1	=1	=1
*xywh-#257:834,2474,6140,887	*	*xywh-#169:7155,1761,5997,1012	*	*xywh-#92:1341,2070,6015,863	*	*xywh-#5:3425,1318,3562,818	*
!	!	!LO:TX:t=P:problem=nad pauzami pomocniczo wpisana partia Alto	!	!LO:TX:t=P:problem=nad 0r custos f i c - pomocniczo wpisana partia Alto	!	!LO:TX:t=P:problem=all\right&colon; global	!
00r	.	00r	.	0r	.	1c\	Mit-
.	.	.	.	.	.	1.f\	-tit
=2	=2	=2	=2	=2	=2	=2	=2
.	.	.	.	1F/	Mit-	.	.
*	*	*	*	*	*	*2\right	*
!	!	!	!	!	!	!LO:TX:t=P:problem=kreska pseudotaktowa	!
.	.	.	.	.	.	2f\	ad
*	*	*	*	*	*	*lig	*
.	.	.	.	1.c\	-tit	1g\	Vir-
=3	=3	=3	=3	=3	=3	=3	=3
*	*	*	*	*2\right	*	*col	*
1r	.	00r	.	.	.	2.e\	.
!	!	!	!	!LO:TX:t=P:problem=kreska pseudotaktowa	!	!	!
.	.	.	.	2c\	ad	.	.
*	*	*	*	*	*	*Xlig	*
.	.	.	.	.	.	4e\	-gi-
*	*	*	*	*	*	*Xcol	*
1BB-/	Mit-	.	.	2d\	Vir-	1.f\	-nem
.	.	.	.	2B-\	-gi-	.	.
=4	=4	=4	=4	=4	=4	=4	=4
1.F\	-tit	.	.	1.c\	-ne(m)	.	.
!	!	!	!	!	!	!LO:TX:t=P:problem=kreska pseudotaktowa	!
.	.	.	.	.	.	2a\	non
.	.	.	.	.	.	4a\	quem-
.	.	.	.	.	.	4g\	.
*2\right	*	*	*	*	*	*	*
!	!	!	!	!LO:TX:t=P:problem=kreska pseudotaktowa	!	!	!
2F\	.	.	.	2d\	ad	4f\	.
*	*	*	*	*	*	*custos:d	*
.	.	.	.	.	.	4e\	.
!	!	!	!	!	!	!LO:LB:g=original	!
=5	=5	=5	=5	=5	=5	=5	=5
*	*	*	*	*	*	*xywh-#5:914,1892,6004,952	*
*	*	*	*	*lig	*	*	*
!	!	!LO:TX:t=P:problem=kreska pseudotaktowa	!	!	!	!	!
1G\	ad	1r	.	1B-\	Vir-	2d\	.
!	!	!	!	!	!	!LO:TX:t=P:problem=kreska pseudotaktowa	!
.	.	.	.	.	.	2.g\	.
*	*	*	*	*col	*	*	*
1E\	Vir-	1C/	Mit-	2.c\	-gi-	.	.
.	.	.	.	.	.	4f\	.
.	.	.	.	.	.	4e\	.
*	*	*	*	*Xlig	*	*	*
!	!	!	!	!LO:TX:t=P:problem=kreska pseudotaktowa	!	!	!
.	.	.	.	4c\	-ne(m)	8f\L	.
.	.	.	.	.	.	8g\J	.
*	*	*	*	*Xcol	*	*	*
=6	=6	=6	=6	=6	=6	=6	=6
!	!	!	!	!	!	!LO:TX:t=P:problem=kreska pseudotaktowa	!
*	*	*	*	*	*ij	*	*
2F\	-gi-	1.F/	-tit	2c\	ad	1a\	.
!LO:TX:t=P:problem=kreska pseudotaktowa	!	!	!	!	!	!	!
2D/	-nem	.	.	2d\	Vir-	.	.
2.BB-/	.	.	.	2.d\	-gi-	2f\	-uis
.	.	2F/	ad	.	.	1d\	An-
!	!	!	!	!LO:TX:t=P:problem=kreska pseudotaktowa	!	!	!
4AA/	ad	.	.	4c\	-ne(m)	.	.
=7	=7	=7	=7	=7	=7	=7	=7
*lig	*	*lig	*	*	*	*	*
1GG/	Vir-	1G/	Vir-	2.B-/	ad	.	.
.	.	.	.	.	.	2.g\	-ge-
.	.	.	.	4A/	Vir-	.	.
*col	*	*col	*	*	*	*	*
!	!	!LO:TX:t=P:problem=brak koloru	!	!	!	!	!
2.C/	.	2.E/	.	2.G/	-gi-	.	.
.	.	.	.	.	.	4g\	-lum
.	.	.	.	.	.	1c,\	.
*Xlig	*	*Xlig	*	*	*	*	*
!	!	!LO:TX:t=P:problem=kreska pseudotaktowa	!	!LO:TX:t=P:problem=kreska pseudotaktowa	!	!	!
4C/	-gi-	4E/	-gi-	4G/	-ne(m)	.	.
*Xcol	*	*Xcol	*	*	*Xij	*	*
=8	=8	=8	=8	=8	=8	=8	=8
!LO:TX:t=P:problem=kreska pseudotaktowa	!	!LO:TX:t=P:problem=kreska pseudotaktowa	!	!LO:TX:t=P:problem=kreska pseudotaktowa	!	!	!
1FF/	-ne(m)	1F/	-nem	1A\,	.	.	.
.	.	.	.	.	.	1d\	non
1r	.	1G/	non	1B-\	non	.	.
!	!	!	!	!	!	!LO:TX:t=P:problem=kreska pseudotaktowa	!
.	.	.	.	.	.	2e\	quem-
=9	=9	=9	=9	=9	=9	=9	=9
!	!	!LO:TX:t=P:problem=kreska pseudotaktowa	!	!	!	!	!
1FF/	non	1A\	.	2c\	quem-	4f\	-uis
.	.	.	.	.	.	4c/	.
.	.	.	.	1d\	-uis	4f\	.
.	.	.	.	.	.	4e\	.
1GG/	quem-	1B-\	quem-	.	.	4d\	An-
.	.	.	.	.	.	8e\L	.
.	.	.	.	.	.	8f\J	.
.	.	.	.	4c\	.	1g\	.
.	.	.	.	4B-\	.	.	.
=10	=10	=10	=10	=10	=10	=10	=10
4AA/	-uis	1A\	-uis	1.c\	An-	.	.
4GG/	.	.	.	.	.	.	.
4AA/	.	.	.	.	.	1f\	.
!LO:TX:t=P:problem=kreska pseudotaktowa	!	!	!	!	!	!	!
4BB-/	.	.	.	.	.	.	.
4C/	An-	2.G/	An-	.	.	.	.
4D/	.	.	.	.	.	.	.
*	*	*	*	*custos:B	*	*	*
!	!	!	!	!LO:TX:t=P:problem=kreska pseudotaktowa	!	!	!
4E/	.	.	.	2c\	-ge-	2e\	-ge-
4C/	.	4G/	-ge-	.	.	.	.
!	!	!	!	!LO:LB:g=original	!	!	!
=11	=11	=11	=11	=11	=11	=11	=11
*	*	*	*	*xywh-#92:1407,2752,5931,863	*	*	*
!	!	!LO:TX:t=P:problem=kreska pseudotaktowa	!	!	!	!LO:TX:t=P:problem=kreska pseudotaktowa	!
4D\	.	1F/	-lu(m),	2B-,\	-lu(m)	1f\	-lum
4E\	.	.	.	.	.	.	.
!	!	!	!	!LO:TX:t=P:problem=kreska pseudotaktowa	!	!	!
2.F\	.	.	.	2A/	Sed	.	.
!	!	!LO:TX:t=P:problem=kreska pseudotaktowa	!	!	!	!	!
.	.	1A\	ſed	2c\	for-	1r	.
*custos:D	*	*	*	*	*	*	*
!LO:TX:t=P:problem=kreska pseudotaktowa	!	!	!	!	!	!	!
4E\	.	.	.	.	.	.	.
*xywh-#257:918,3142,6040,917	*	*	*	*	*	*	*
4.D/	.	.	.	2F/	-ti-	.	.
!LO:TX:t=P:problem=kreska pseudotaktowa	!	!	!	!	!	!	!
8D/	-ge-	.	.	.	.	.	.
=12	=12	=12	=12	=12	=12	=12	=12
!LO:TX:t=P:problem=kreska pseudotaktowa	!	!	!	!	!	!	!
1C/	-lum	1c\	for-	2.G/	-tu-	1e\	ſed
!	!	!	!	!LO:TX:t=P:problem=kreska pseudotaktowa	!	!	!
.	.	.	.	4G/	-di-	.	.
1r	.	1B-\	-ti-	4G/	-nem	1g\	for-
.	.	.	.	4A/	.	.	.
.	.	.	.	4B-\	.	.	.
.	.	.	.	4c\	.	.	.
=13	=13	=13	=13	=13	=13	=13	=13
*	*	*custos:G	*	*	*	*	*
2D/	ſed	1A\	-tu-	2d\	.	1f\	-ti-
!	!	!	!	!LO:TX:t=P:problem=kreska pseudotaktowa	!	!	!
1F\	for-	.	.	2c\	Su-	.	.
*	*	*xywh-#169:7300,2543,5832,851	*	*	*	*	*
!	!	!LO:LB;g=original	!	!	!	!	!
.	.	2.G/	.	2B-\	.	2g\	-tu-
!LO:TX:t=P:problem=kreska pseudotaktowa	!	!	!	!	!	!LO:TX:t=P:problem=kreska pseudotaktowa	!
2E\	-ti-	.	.	1c\	.	2G/	.
.	.	4G/	-di-	.	.	.	.
=14	=14	=14	=14	=14	=14	=14	=14
!	!	!LO:TX:t=P:problem=kreska pseudotaktowa	!	!	!	!	!
2.D/	-tu-	1F/	-nem	.	.	2.d\	.
!	!	!	!	!LO:TX:t=P:problem=kreska pseudotaktowa	!	!	!
!	!	!	!	!LO:TX:t=P:problem=♮ above	!	!	!
!	!	!	!	!LO:N:acc=#	!	!	!
.	.	.	.	2Bn\	.	.	.
4D/	-di-	.	.	.	.	4d\	-di-
*	*	*lig	*	*	*	*	*
*	*	*	*	*	*	*custos:g	*
!	!	!	!	!LO:LB:g=original	!	!	!
!LO:TX:t=P:problem=kreska pseudotaktowa	!	!	!	!	!	!	!
1C/	-nem	1E/	ſu-	2c\	-am	2G/	-nem
*	*	*	*	*	*	*xywh-#5:938,2481,6028,976	*
!	!	!	!	!	!	!LO:LB:g=original	!
!	!	!	!	!LO:TX:t=P:problem=kreska pseudotaktowa	!	!	!
.	.	.	.	2c\	Ar-	2g\	Su-
=15	=15	=15	=15	=15	=15	=15	=15
1D\	ſu-	1F/	.	2A\	-chan-	2f\	.
.	.	.	.	1B-\	.	4d\	-am
!	!	!	!	!	!	!LO:TX:t=P:problem=kreska pseudotaktowa	!
.	.	.	.	.	.	4c/	.
*	*	*Xlig	*	*	*	*	*
!	!	!LO:TX:t=P:problem=kreska pseudotaktowa	!	!	!	!	!
1E-X\	am	1G/	-am	.	.	4B-/	Ar-
.	.	.	.	.	.	4G/	.
!	!	!	!	!LO:TX:t=P:problem=kreska pseudotaktowa	!	!	!
.	.	.	.	2c\	.	1g\	-chan-
=16	=16	=16	=16	=16	=16	=16	=16
!LO:SIC:v:o=1BB#X/	!	!	!	!	!	!	!
1BBn	Ar-	1D/	Ar-	4d\	.	.	.
.	.	.	.	4G/	.	.	.
*	*	*	*	*lig	*	*	*
.	.	.	.	1d\	.	2g\	-ge-
*lig	*	*	*	*	*	*	*
!	!	!	!	!	!	!LO:TX:t=P:problem=kreska pseudotaktowa	!
1C/	-chan-	(1E-X/	-chan-	.	.	1g\	-lu(m)
.	.	.	.	1c\	.	.	.
*	*	*	*	*Xlig	*	*	*
=17	=17	=17	=17	=17	=17	=17	=17
*col	*	*	*	*	*	*	*
2.GG/	.	2.D/)	.	.	.	2r	.
!	!	!	!	!LO:TX:t=P:problem=kreska pseudotaktowa	!	!	!
!	!	!	!	!LO:TX:a:t=P:problem=# above	!	!	!
!	!	!	!	!LO:N:acc=#	!	!	!
.	.	.	.	2Bn\	-ge-	2g\	a-
*Xlig	*	*	*	*	*	*	*
4GG/	-ge-	4D/	-ge-	.	.	.	.
*Xcol	*	*	*	*	*	*	*
!	!	!LO:TX:t=P:problem=kreska pseudotaktowa	!	!	!	!	!
2C/	-lum	1C/	-lum	1c\,	-lu(m)	2e\	-ma-
!LO:TX:t=P:problem=kreska pseudotaktowa	!	!	!	!	!	!	!
2G\	a-	.	.	.	.	2.c\	.
=18	=18	=18	=18	=18	=18	=18	=18
!	!	!	!	!LO:TX:t=P:problem=kreska pseudotaktowa	!	!	!
2E\	-ma-	1G/	a-	1c\	a-	.	.
.	.	.	.	.	.	4d\	.
!	!	!	!	!	!	!LO:TX:t=P:problem=kreska pseudotaktowa	!
2C/	-tor	.	.	.	.	2e\	.
*	*	*lig	*	*	*	*	*
4D\	.	1F/	-ma-	2B-/	-ma-	4f\	.
4E\	.	.	.	.	.	4e\	.
1F\	ho-	.	.	2A/	-tor	4d\	.
.	.	.	.	.	.	4c/	.
=19	=19	=19	=19	=19	=19	=19	=19
!	!	!	!	!LO:TX:t=P:problem=kreska pseudotaktowa	!	!	!
.	.	1G/	.	1G/	.	2B-/	.
!LO:TX:t=P:problem=kreska pseudotaktowa	!	!	!	!	!	!LO:TX:t=P:problem=kreska pseudotaktowa	!
2E\	-mi-	.	.	.	.	2c/	.
*	*	*Xlig	*	*	*	*	*
!	!	!	!	!	!	!LO:SIC:v:o=4G/	!
1F\	-nis	1A\	.	1F/,	.	4A	-tor
.	.	.	.	.	.	4a\	a-
.	.	.	.	.	.	1f\	.
=20	=20	=20	=20	=20	=20	=20	=20
!	!	!LO:TX:t=P:problem=kreska pseudotaktowa	!	!	!	!	!
1D\	a-	1F/	-tor	2A/	a-	.	.
*	*	*	*	*custos:D	*	*	*
!	!	!	!	!LO:TX:t=P:problem=kreska pseudotaktowa	!	!	!
.	.	.	.	2F,/	-ma-	1d\	-ma-
*	*	*	*	*xywh-#92:1462,3381,5858,839	*	*	*
!	!	!	!	!LO:LB;g=original	!	!	!
*	*	*lig	*	*	*	*	*
2BB-/	-ma-	1F/	ho-	2D/	.	.	.
!	!	!	!	!LO:TX:t=P:problem=kreska pseudotaktowa	!	!	!
2FF/	-tor	.	.	2A/	.	1d\	-tor
=21	=21	=21	=21	=21	=21	=21	=21
2GG/	.	1E/	.	2B-\	.	.	.
!	!	!	!	!	!	!LO:TX:t=P:problem=kreska pseudotaktowa	!
!LO:TX:t=P:problem=kreska pseudotaktowa	!	!	!	!LO:TX:t=P:problem=kreska pseudotaktowa	!	!LO:TX:t=P:problem=# below	!
2AA/	Ho-	.	.	2A/	-tor	2c#X/	ho-
*custos:B	*	*	*	*	*	*	*
*	*	*Xlig	*	*	*	*	*
*xywh-#257:883,3810,6105,996	*	*	*	*	*	*	*
!LO:LB:g=original	!	!	!	!	!	!	!
4BB-/	.	1D/	.	2.F/	ho-	2d\	-mi-
4C/	.	.	.	.	.	.	.
1D\	.	.	.	.	.	2f\	-nis
.	.	.	.	4G/	.	.	.
=22	=22	=22	=22	=22	=22	=22	=22
*	*	*	*	*	*	*	*ij
.	.	2.E/	.	2.A/	.	1e\	a-
!LO:TX:t=P:problem=kreska pseudotaktowa	!	!	!	!	!	!	!
!LO:TX:t=P:problem=# above	!	!	!	!	!	!	!
2C#X/	-mi-	.	.	.	.	.	.
!	!	!	!	!LO:TX:t=P:problem=kreska pseudotaktowa	!	!	!
.	.	4E/	-mi-	4A/	-mi-	.	.
2D/	-nis	[y1F/;	-nis.	2A,/	-nis	1.d\	-ma-
!	!	!	!	!LO:TX:t=P:problem=kreska pseudotaktowa	!	!	!
*	*ij	*	*	*	*ij	*	*
2D/	Ho-	.	.	2f\	a-	.	.
=23	=23	=23	=23	=23	=23	=23	=23
2BB-/	.	00F/]yy	.	2d\	-ma-	.	.
!	!	!	!	!	!	!LO:TX:t=P:problem=kreska pseudotaktowa	!
2AA/	.	.	.	4c\	-tor	2f\	-tor
.	.	.	.	2c\	ho-	.	.
2.BB-/	.	.	.	.	.	2d\	ho-
.	.	.	.	8B-\L	.	.	.
.	.	.	.	8A\J	.	.	.
.	.	.	.	4.B-\	.	2c/	-mi-
4BB-/	-mi-	.	.	.	.	.	.
!	!	!	!	!LO:TX:t=P:problem=kreska pseudotaktowa	!	!	!
.	.	.	.	8B-\	-mi-	.	.
=24	=24	=24	=24	=24	=24	=24	=24
!LO:N:vis=1	!	!	!	!LO:N:vis=1	!	!	!
0FF/;	-nis	.	.	0A\;	-nis	2.d\	-nis
*	*Xij	*	*	*	*Xij	*	*Xij
.	.	.	.	.	.	4d\	.
!	!	!	!	!	!	!LO:TX:t=P:problem=brak kreski taktowej	!
!	!	!	!	!	!	!LO:TX:t=P:problem=podwójna fermata	!
.	.	.	.	.	.	1c\;	.
!	!	!LO:LB;g=original	!	!	!	!LO:LB:g=original	!
=25||	=25||	=25||	=25||	=25||	=25||	=25||	=25||
*	*	*xywh-#169:7175,3180,6083,911	*	*	*	*xywh-#5:871,3221,6125,879	*
*M2/1	*	*M2/1	*	*M2/1	*	*M2/1	*
*met(C|)	*	*met(C|)	*	*met(C|)	*	*met(C|)	*
!	!	!	!	!	!	!LO:TX:t=P:problem=kreska pseudotaktowa	!
2FF/	Na-	1A\	Na-	00r	.	1r	.
1F\	-tu-	.	.	.	.	.	.
.	.	0c\	-tu-	.	.	2G/	Na-
4E\	.	.	.	.	.	1g\	-tu-
!LO:TX:t=P:problem=kreska pseudotaktowa	!	!	!	!	!	!	!
4D\	.	.	.	.	.	.	.
=26	=26	=26	=26	=26	=26	=26	=26
2E\	.	.	.	.	.	.	.
!	!	!	!	!	!	!LO:TX:t=P:problem=kreska pseudotaktowa	!
2C/	-ram	.	.	.	.	2e\	-ram
!	!	!LO:TX:t=P:problem=kreska pseudotaktowa	!	!	!	!	!
4D\	ſu-	1B-\	-ram	.	.	2.f\	ſu-
4C\	.	.	.	.	.	.	.
4D\	.	.	.	.	.	.	.
!LO:TX:t=P:problem=kreska pseudotaktowa	!	!	!	!	!	!	!
4E\	.	.	.	.	.	8e\L	.
.	.	.	.	.	.	8d\J	.
=27	=27	=27	=27	=27	=27	=27	=27
!	!	!	!	!LO:TX:t=P:problem=kreska pseudotaktowa	!	!	!
4F\	.	2.A/	ſu-	1r	.	1.c\	.
4C/	.	.	.	.	.	.	.
2.F\	.	.	.	.	.	.	.
.	.	4A/	-pe-	.	.	.	.
!	!	!LO:TX:t=P:problem=kreska pseudotaktowa	!	!	!	!	!
.	.	1G/	-ret	2C/	Na-	.	.
4F\	-pe-	.	.	.	.	.	.
!LO:TX:t=P:problem=kreska pseudotaktowa	!	!	!	!	!	!LO:TX:t=P:problem=kreska pseudotaktowa	!
2E\	-ret	.	.	4c\	-tu-	2c/	-pe-
.	.	.	.	4B-\	.	.	.
=28	=28	=28	=28	=28	=28	=28	=28
2.F\	na-	1A\	na-	4A/	.	2c/	-ret
.	.	.	.	4G/	.	.	.
.	.	.	.	4F/	.	1f\	na-
*custos:D	*	*	*	*	*	*	*
!LO:TX:t=P:problem=kreska pseudotaktowa	!	!	!	!	!	!	!
!	!	!	!LO:TX:t=P:problem=kreska pseudotaktowa	!	!	!	!
4E\	.	.	.	4G/	.	.	.
*xywh-#257:7203,396,6199,1051	*	*	*	*	*	*	*
!LO:PB:g=original	!	!LO:TX:t=P:problem=kreska pseudotaktowa	!	!	!	!	!
2.D/	.	1F/	-tus	4A/	.	.	.
.	.	.	.	4G/	.	.	.
.	.	.	.	4F/	.	1d\	-tus
*	*	*	*	*custos:D	*	*	*
!	!	!	!	!LO:TX:t=P:problem=kreska pseudotaktowa	!	!	!
4C/	.	.	.	4E/	.	.	.
!	!	!	!	!LO:LB:g=original	!	!	!
=29	=29	=29	=29	=29	=29	=29	=29
*	*	*	*	*xywh-#92:1474,3985,5870,954	*	*	*
4BB-/	.	1B-\	Rex	1D/	.	.	.
4AA/	.	.	.	.	.	.	.
!LO:TX:t=P:problem=kreska pseudotaktowa	!	!	!	!	!	!	!
2GG/	.	.	.	.	.	1g\	Rex
!	!	!LO:TX:t=P:problem=kreska pseudotaktowa	!	!	!	!	!
2D/	.	1A\	.	2D/	-ram	.	.
!	!	!	!	!	!	!LO:TX:t=P:problem=kreska pseudotaktowa	!
!	!	!	!	!	!	!LO:TX:t=P:problem=# above	!
2D/	-tus	.	.	1d\	Su-	2e#X\	glo-
=30	=30	=30	=30	=30	=30	=30	=30
2.E-X\	Rex	2.G/	glo-	.	.	2.g\	-ri-
.	.	.	.	2c\	-pe-	.	.
!LO:TX:t=P:problem=kreska pseudotaktowa	!	!	!	!	!	!	!
4E-\	glo-	4G/	-ri-	.	.	4g\	-ae,
!	!	!LO:TX:t=P:problem=kreska pseudotaktowa	!	!LO:TX:t=P:problem=kreska pseudotaktowa	!	!LO:SIC:v:o=2f-X\	!
2D\	-ri-	1A\	-ae	1d\	-ret	2f	.
!	!	!	!	!	!	!LO:SIC:v:o=2.f-\	!
2D\	-ae	.	.	.	.	2.f	re-
=31	=31	=31	=31	=31	=31	=31	=31
1F\	re-	1A\	re-	1r	.	.	.
.	.	.	.	.	.	8e\L	.
.	.	.	.	.	.	8d\J	.
.	.	.	.	.	.	4c\	.
!	!	!	!	!	!	!LO:TX:t=P:problem=kreska pseudotaktowa	!
.	.	.	.	.	.	4d\	.
!	!	!LO:TX:t=P:problem=kreska pseudotaktowa	!	!	!	!	!
2E\	-gnet	1c\	-gnet	0G/	re-	2.e\	.
2.C/	.	.	.	.	.	.	.
!	!	!	!	!	!	!LO:TX:t=P:problem=kreska pseudotaktowa	!
.	.	.	.	.	.	4f\	.
=32	=32	=32	=32	=32	=32	=32	=32
!	!	!LO:TX:t=P:problem=1c poprawione na 1B	!	!	!	!	!
.	.	1B-\	et	.	.	1g\	.
4D/	et	.	.	.	.	.	.
4E\	im-	.	.	.	.	.	.
!LO:TX:t=P:problem=kreska pseudotaktowa	!	!	!	!	!	!	!
4F\	.	.	.	.	.	.	.
4G\	.	(<1B-\	im-	2B-\	-gnet	2g\	-gnet
4GG/	.	.	.	.	.	.	.
4BB-/	.	.	.	1d\	et	1g\	et
4GG/	.	.	.	.	.	.	.
=33	=33	=33	=33	=33	=33	=33	=33
2D/	.	2.A/)	.	.	.	.	.
!LO:TX:t=P:problem=kreska pseudotaktowa	!	!	!	!	!	!	!
2AA/	.	.	.	(2c\	im-	1f\	im-
.	.	4A/	-pe-	.	.	.	.
*	*	*custos:A	*	*	*	*	*
!	!	!LO:TX:t=P:problem=kreska pseudotaktowa	!	!	!	!	!
2BB-/	.	1G/	-ret	2d\)	.	.	.
*	*	*	*	*	*	*custos:f	*
!	!	!	!	!	!	!LO:TX:t=P:problem=kreska pseudotaktowa	!
4.C/	-pe-	.	.	2.c\	-pe-	2e\	-pe-
8C/	-ret	.	.	.	.	.	.
!	!	!LO:LB:g=original	!	!	!	!LO:LB:g=original	!
=34	=34	=34	=34	=34	=34	=34	=34
*	*	*xywh-#169:7285,3951,6012,987	*	*	*	*xywh-#5:902,3821,6034,970	*
!LO:TX:t=P:problem=kreska pseudotaktowa	!	!	!	!	!	!	!
1FF/	.	1A\	et	.	.	2f\	-ret
.	.	.	.	4F/	-ret	.	.
.	.	.	.	1c\	.	1a\	et
!	!	!LO:TX:t=P:problem=kreska pseudotaktowa	!	!	!	!	!
1r	.	1F/	zy-	.	.	.	.
!	!	!	!	!LO:TX:t=P:problem=kreska pseudotaktowa	!	!	!
.	.	.	.	2A/	et	1f\	zy-
=35	=35	=35	=35	=35	=35	=35	=35
1BB-/	et	1B-\	-ma-	1d\	zy-	.	.
!	!	!	!	!	!	!LO:TX:t=P:problem=kreska pseudotaktowa	!
.	.	.	.	.	.	2f\	-ma-
*	*	*lig	*	*	*	*	*
2F\	zy-	1A\	-sco-	2c\	-ma-	1f\	-ſco-
!LO:TX:t=P:problem=kreska pseudotaktowa	!	!	!	!	!	!	!
2D\	-ma-	.	.	1d\	-ſco-	.	.
=36	=36	=36	=36	=36	=36	=36	=36
2.E-X\	-ſco-	1G/	.	.	.	2g\	.
!	!	!	!	!LO:TX:t=P:problem=kreska pseudotaktowa	!	!LO:TX:t=P:problem=kreska pseudotaktowa	!
.	.	.	.	2c\	-ri-	2G/	.
4E-\	-ri-	.	.	.	.	.	.
*	*	*Xlig	*	*	*	*	*
4D/	-ae	2.F/	.	2d\	-ae	2.A/	.
8C/L	.	.	.	.	.	.	.
*custos:AA	*	*	*	*	*	*	*
!LO:TX:t=P:problem=kreska pseudotaktowa	!	!	!	!	!	!	!
8BB-/J	.	.	.	.	.	.	.
*xywh-#257:7283,1154,6100,931	*	*	*	*	*	*	*
!LO:LB:g=original	!	!	!	!	!	!	!
4AA/	zy-	.	.	2.c\	tol-	.	.
!LO:TX:t=P:problem=kreska pseudotaktowa	!	!	!	!	!	!	!
4BB-/	-ma-	4F/	-ri-	.	.	4A/	-ri-
=37	=37	=37	=37	=37	=37	=37	=37
!	!	!LO:TX:t=P:problem=kreska pseudotaktowa	!	!	!	!	!
2.C/	-ſco-	1E/	-ae	.	.	2G/	-ae
.	.	.	.	8B-\L	.	.	.
.	.	.	.	8A\J	.	.	.
!	!	!	!	!	!	!LO:TX:t=P:problem=kreska pseudotaktowa	!
.	.	.	.	4G/	.	2r	.
!	!	!	!	!LO:TX:t=P:problem=kreska pseudotaktowa	!	!	!
8BB-/L	.	.	.	4A/	.	.	.
8AA/J	.	.	.	.	.	.	.
2.GG/	.	1G/	tol-	1B-\	.	4g\	tol-
.	.	.	.	.	.	8f\L	.
.	.	.	.	.	.	8e\J	.
.	.	.	.	.	.	4d\	.
!LO:TX:t=P:problem=kreska pseudotaktowa	!	!	!	!	!	!LO:TX:t=P:problem=kreska pseudotaktowa	!
4GG/	-ri-	.	.	.	.	4e\	.
=38	=38	=38	=38	=38	=38	=38	=38
2FF/	-ae	1A\	-lat	2c\	-lat	1f\	.
!	!	!	!	!LO:TX:t=P:problem=kreska pseudotaktowa	!	!	!
2F\	tol-	.	.	2A/	.	.	.
!	!	!LO:TX:t=P:problem=kreska pseudotaktowa	!	!	!	!	!
2.D/	-lat	1F/	.	1d\	de	2f\	-lat
!	!	!	!	!	!	!LO:TX:t=P:problem=kreska pseudotaktowa	!
.	.	.	.	.	.	2A/	de
!LO:TX:t=P:problem=kreska pseudotaktowa	!	!	!	!	!	!	!
4C/	.	.	.	.	.	.	.
=39	=39	=39	=39	=39	=39	=39	=39
*	*	*lig	*	*	*	*	*
2BB-/	.	1F/	de	2d\	me-	2B-/	.
2AA/	tol-	.	.	2.c\	.	4.c/	me-
.	.	.	.	.	.	8c/	-di-
2C/	-lat	1E/	me-	.	.	2G/	-o
.	.	.	.	4G/	.	.	.
!LO:TX:t=P:problem=kreska pseudotaktowa	!	!	!	!	!	!LO:TX:t=P:problem=kreska pseudotaktowa	!
2AA/	.	.	.	1c\	.	2A/	de
*	*	*Xlig	*	*	*	*	*
=40	=40	=40	=40	=40	=40	=40	=40
2FF/	de	(1D/	.	.	.	2a\	.
*	*	*	*	*custos:c	*	*	*
!	!	!	!	!LO:TX:t=P:problem=♮ above	!	!	!
!	!	!	!	!LO:N:acc=#	!	!	!
4.GG/	me-	.	.	2Bn\	-di-	4.g\	me-
8GG/	-di-	.	.	.	.	8g\	-di-
*	*	*	*	*xywh-#92:7405,554,6028,1069	*	*	*
!	!	!	!	!LO:PB:g=original	!	!	!
2C/	-o	2.E/)	.	1c\	-o	2g\	-o
!LO:TX:t=P:problem=kreska pseudotaktowa	!	!	!	!	!	!LO:TX:t=P:problem=kreska pseudotaktowa	!
2C/	tol-	.	.	.	.	2g\	tol-
.	.	4E/	-di-	.	.	.	.
=41	=41	=41	=41	=41	=41	=41	=41
!	!	!LO:TX:t=P:problem=kreska pseudotaktowa	!	!	!	!	!
2FF/	.	1F/	-o	2c\	tol-	2a\	-lat
!	!	!	!	!LO:TX:t=P:problem=kreska pseudotaktowa	!	!	!
2F\	-lat	.	.	2d\	-lat	2f\	de
!	!	!LO:TX:t=P:problem=niekompletne źródło	!	!	!	!	!
*	*	*	*	*	*	*lig	*
2.G\	de	1ryy	.	4d\	.	1d\	me-
.	.	.	.	4c\	.	.	.
.	.	.	.	4B-\	.	.	.
!LO:TX:t=P:problem=kreska pseudotaktowa	!	!	!	!	!	!	!
4F\	.	.	.	4A\	de	.	.
=42	=42	=42	=42	=42	=42	=42	=42
*	*	*	*	*	*	*col	*
4E\	me-	0c\	tol-	1G/	me-	2.e\	.
4D\	.	.	.	.	.	.	.
4.E\	.	.	.	.	.	.	.
*	*	*	*	*	*	*Xlig	*
*	*	*	*	*	*	*custos:c	*
!	!	!	!	!	!	!LO:TX:t=P:problem=kreska pseudotaktowa	!
.	.	.	.	.	.	4d\	-di-
8E\	-di-	.	.	.	.	.	.
*	*	*	*	*	*	*Xcol	*
!LO:TX:t=P:problem=kreska pseudotaktowa	!	!	!	!	!	!LO:PB:g=original	!
*	*	*	*	*	*	*xywh-#5:7227,407,6101,1121	*
1F\	-o	.	.	2.A/	-di-	2c/	-o
*	*	*	*	*	*	*	*ij
.	.	.	.	.	.	1f\	tol-
!	!	!	!	!LO:TX:t=P:problem=kreska pseudotaktowa	!	!	!
.	.	.	.	4A/	-o	.	.
=43	=43	=43	=43	=43	=43	=43	=43
*	*ij	*2\right	*	*	*ij	*	*
1BB-/	tol-	2d\	-lat	2B-\	tol-	.	.
!	!	!	!	!	!	!LO:TX:t=P:problem=kreska pseudotaktowa	!
.	.	2.B-\	de	1d\	-lat	2g\	-lat
2D/	-lat	.	.	.	.	4g\	de
.	.	4A/	.	.	.	4f\	.
2D/	de	4G/	.	1B-\	de	4e\	.
!	!	!LO:TX:t=P:problem=kreska pseudotaktowa	!	!	!	!LO:TX:t=P:problem=kreska pseudotaktowa	!
.	.	4F/	.	.	.	4d\	.
=44	=44	=44	=44	=44	=44	=44	=44
2C/	me-	2G/	me-	.	.	4e\	.
.	.	.	.	.	.	4c/	.
!LO:SIC:v:o=2BB-/	!	!	!	!LO:TX:t=P:problem=kreska pseudotaktowa	!	!	!
2AA	.	2F/	-di-	2A/	.	1f\	me-
1.C/	.	2.c\	-o	2.G/	me-	.	.
.	.	.	.	.	.	2e\	-di-
.	.	4C/	.	4G/	-di-	.	.
=45	=45	=45	=45	=45	=45	=45	=45
!	!	!LO:N:vis=1	!	!LO:N:vis=1	!	!	!
.	.	0C/;;	.	0A\;	-o	0f\;	-o
*	*	*	*	*	*Xij	*	*Xij
2C/	-di-	.	.	.	.	.	.
1FF/;	-o	.	.	.	.	.	.
*	*Xij	*	*	*	*	*	*
!LO:LB:g=original	!	!LO:PB:g=original	!	!	!	!	!
=46||	=46||	=46||	=46||	=46||	=46||	=46||	=46||
*xywh-#257:7148,1837,6145,996	*	*xywh-#170:660,404,6247,1040	*	*	*	*	*
*M2/1	*	*M2/1	*	*M2/1	*	*M2/1	*
*met(C|)	*	*met(C|)	*	*met(C|)	*	*met(C|)	*
*lig	*	*	*	*	*	*	*
!	!	!	!	!LO:TX:b:t=Foras	!	!LO:TX:t=P:problem=kreska pseudotaktowa	!
1C/	Fo-	1c\	Fo-	00r	.	1r	.
1D\	.	4F/	-ras	.	.	1f\	Fo-
.	.	4E/	.	.	.	.	.
.	.	4F/	.	.	.	.	.
!	!	!LO:TX:t=P:problem=kreska pseudotaktowa	!	!	!	!	!
.	.	4G/	.	.	.	.	.
*Xlig	*	*	*	*	*	*	*
=47	=47	=47	=47	=47	=47	=47	=47
!LO:TX:t=P:problem=kreska pseudotaktowa	!	!	!	!	!	!	!
1F\	-ras	4A/	.	.	.	4c/	-ras
.	.	4G/	.	.	.	4B-/	.
.	.	4A/	.	.	.	4c/	.
!	!	!	!	!	!	!LO:TX:t=P:problem=kreska pseudotaktowa	!
.	.	4B-\	.	.	.	4d\	.
1E\	e-	4c\	.	.	.	2e\	.
.	.	4G/	.	.	.	.	.
*	*	*lig	*	*	*	*	*
.	.	1c\	e-	.	.	2e\	e-
=48	=48	=48	=48	=48	=48	=48	=48
*lig	*	*	*	*	*	*	*
1G\	-ij-	.	.	1r	.	2.d\	-ij-
.	.	1B-\	.	.	.	.	.
!	!	!	!	!	!	!LO:TX:t=P:problem=kreska pseudotaktowa	!
.	.	.	.	.	.	4d\	-ci-
*col	*	*	*	*	*	*	*
2.E\	.	.	.	2r	.	1.c\	-at
*Xlig	*	*Xlig	*	*	*	*	*
!	!	!	!	!LO:TX:t=P:problem=kreska pseudotaktowa	!	!	!
.	.	4A/	-ij-	2c\	mun-	.	.
!LO:TX:t=P:problem=kreska pseudotaktowa	!	!LO:TX:t=P:problem=kreska pseudotaktowa	!	!	!	!	!
4E\	-ci-	4G/	.	.	.	.	.
*Xcol	*	*	*	*	*	*	*
=49	=49	=49	=49	=49	=49	=49	=49
2F\	-at	2A/	.	4F/	-da-	.	.
.	.	.	.	4G/	.	.	.
!	!	!	!	!	!	!LO:TX:t=P:problem=kreska pseudotaktowa	!
2F\	mun-	2A/	-ci-	4A/	.	2f\	mun-
!	!	!	!	!LO:TX:t=P:problem=kreska pseudotaktowa	!	!	!
.	.	.	.	4B-\	.	.	.
!	!	!LO:TX:t=P:problem=kreska pseudotaktowa	!	!	!	!	!
4C/	-da-	1G/	-at	4c\	.	1e\	-da-
4D/	.	.	.	4G/	.	.	.
4E/	.	.	.	1c\	.	.	.
!LO:TX:t=P:problem=kreska pseudotaktowa	!	!	!	!	!	!	!
4C/	.	.	.	.	.	.	.
=50	=50	=50	=50	=50	=50	=50	=50
2.G\	.	1G/	mun-	.	.	1d\	-nu(m)
*	*	*	*	*custos:c	*	*	*
!	!	!	!	!LO:TX:t=P:problem=kreska pseudotaktowa	!	!	!
!	!	!	!	!LO:TX:t=P:problem=♮ above	!	!	!
!	!	!	!	!LO:N:acc=#	!	!	!
.	.	.	.	2Bn\	-num	.	.
4F\	.	.	.	.	.	.	.
*	*	*	*	*xywh-#92:7399,1345,5919,954	*	*	*
!	!	!	!	!LO:LB;g=original	!	!	!
*	*	*	*	*	*	*lig	*
2E\	.	2G/	-da	1.c\	prin-	1e\	prin-
!LO:TX:t=P:problem=kreska pseudotaktowa	!	!	!	!	!	!	!
2A\	-num	2A/	nu(m)	.	.	.	.
=51	=51	=51	=51	=51	=51	=51	=51
*	*	*	*	*	*	*col	*
(2F\	prin-	2A/	prin-	.	.	2.d\	.
!	!	!	!	!LO:TX:a:t=P:problem=♮ above	!	!	!
!	!	!	!	!LO:N:acc=#	!	!	!
4.G\)	.	2G/	-ci-	2Bn\	-ci-	.	.
*	*	*	*	*	*	*Xlig	*
*	*	*	*	*	*	*custos:e	*
!	!	!	!	!	!	!LO:TX:t=P:problem=kreska pseudotaktowa	!
.	.	.	.	.	.	4d\	-ci-
8G\	-ci-	.	.	.	.	.	.
*	*	*	*	*	*	*Xcol	*
*	*	*	*	*	*	*xywh-#5:7294,1268,5973,940	*
!	!	!	!	!LO:TX:t=P:problem=kreska pseudotaktowa	!	!	!
!LO:TX:t=P:problem=kreska pseudotaktowa	!	!LO:TX:t=P:problem=kreska pseudotaktowa	!	!	!	!LO:LB:g=original	!
1C/,	-pem	1G/	-pe(m)	1c\	-pem	2e,\	-pe(m)
!	!	!	!	!	!	!LO:TX:t=P:problem=kreska pseudotaktowa	!
.	.	.	.	.	.	2g\	Ma-
=52	=52	=52	=52	=52	=52	=52	=52
*lig	*	*	*	*	*	*	*
1C/	Ma-	1c\	Ma-	0r	.	2e\	-tre(m)-
!	!	!	!	!	!	!LO:TX:t=P:problem=kreska pseudotaktowa	!
.	.	.	.	.	.	2c\	-q(ue)
1D\	.	4A/	-trem-	.	.	1.f\	fa-
.	.	4F/	-q(ue)	.	.	.	.
.	.	1B-\	.	.	.	.	.
*Xlig	*	*	*	*	*	*	*
=53	=53	=53	=53	=53	=53	=53	=53
!LO:TX:t=P:problem=kreska pseudotaktowa	!	!	!	!	!	!	!
1F\	-trem-	.	.	1.c\	Ma-	.	.
.	.	4A/	.	.	.	2f\	-ci-
!	!	!LO:TX:t=P:problem=kreska pseudotaktowa	!	!	!	!	!
.	.	4G/	.	.	.	.	.
*lig	*	*	*	*	*	*	*
!	!	!	!	!	!	!LO:TX:t=P:problem=kreska pseudotaktowa	!
1F\	-que	2.A/	fa-	.	.	1c\	-at
!	!	!	!	!LO:TX:t=P:problem=kreska pseudotaktowa	!	!	!
.	.	.	.	2A/	-trem-	.	.
*	*	*custos:c	*	*	*	*	*
!	!	!LO:TX:t=P:problem=kreska pseudotaktowa	!	!	!	!	!
.	.	4B-\	.	.	.	.	.
!	!	!LO:LB:g=original	!	!	!	!	!
=54	=54	=54	=54	=54	=54	=54	=54
*	*	*xywh-#170:900,1204,6061,980	*	*	*	*	*
*	*	*	*	*	*	*lig	*
1E\	.	4c\	.	1G/	-q(ue)	1e\	fa-
.	.	4G/	.	.	.	.	.
.	.	1c\	.	.	.	.	.
*Xlig	*	*	*	*	*	*col	*
2.G\	fa-	.	.	2.G/	fa-	2.d\	.
!	!	!LO:TX:a:t=P:problem=♮ above	!	!	!	!	!
!	!	!LO:N:acc=#	!	!	!	!	!
.	.	2Bn\	-ci-	.	.	.	.
*	*	*	*	*	*	*Xlig	*
!LO:TX:t=P:problem=kreska pseudotaktowa	!	!	!	!LO:TX:t=P:problem=kreska pseudotaktowa	!	!	!
4G\	-ci-	.	.	4G/	-ci-	4d\	-ci-
*	*	*	*	*	*	*Xcol	*
=55	=55	=55	=55	=55	=55	=55	=55
2C/	-at	2c,\	-at	2G/	-at	1e\	-at
*custos:AA	*	*	*	*	*	*	*
!LO:TX:t=P:problem=kreska pseudotaktowa	!	!	!	!	!	!	!
2C/	ſe-	2G/	ſe-	1c\	ſe-	.	.
*xywh-#257:7288,2535,4744,996	*	*	*	*	*	*	*
!LO:LB:g=original	!	!	!	!	!	!LO:TX:t=P:problem=kreska pseudotaktowa	!
2AA/	.	1A\	-cum	.	.	1f#X\	ſe-
2D/	-cu(m)	.	.	1d\	-cum	.	.
=56	=56	=56	=56	=56	=56	=56	=56
!	!	!LO:TX:t=P:problem=kreska pseudotaktowa	!	!	!	!	!
4BB-/	par-	1B-\	pa-	.	.	1.g\	-cum
4GG/	.	.	.	.	.	.	.
4BB-/	.	.	.	1d\	.	.	.
!LO:TX:t=P:problem=kreska pseudotaktowa	!	!	!	!	!	!	!
4C/	-ti-	.	.	.	.	.	.
*	*	*lig	*	*	*	*	*
4D/	.	1A\	-tri-	.	.	.	.
4E\	.	.	.	.	.	.	.
!	!	!	!	!LO:TX:t=P:problem=kreska pseudotaktowa	!	!	!
4F\	.	.	.	2c\	par-	1f\	par-
!LO:TX:t=P:problem=kreska pseudotaktowa	!	!	!	!	!	!	!
4AA/	.	.	.	.	.	.	.
=57	=57	=57	=57	=57	=57	=57	=57
*	*	*col	*	*	*	*	*
2BB-/	.	2.G/	.	2d\	-ti-	.	.
!	!	!	!	!	!	!LO:TX:t=P:problem=kreska pseudotaktowa	!
2C/	.	.	.	1c\	-ci-	2e\	ti-
*	*	*Xlig	*	*	*	*	*
.	.	4G/	-ci-	.	.	.	.
*	*	*Xcol	*	*	*	*	*
*	*	*lig	*	*	*	*	*
2.D/	.	1F/	-pem	.	.	2.f\	-ci-
!	!	!	!	!LO:N:acc=#	!	!	!
.	.	.	.	2Bn\	-pem	.	.
4D/	-ci-	.	.	.	.	4f\	-pem
=58	=58	=58	=58	=58	=58	=58	=58
!LO:TX:t=P:problem=kreska pseudotaktowa	!	!LO:TX:t=P:problem=kreska pseudotaktowa	!	!LO:TX:t=P:problem=kreska pseudotaktowa	!	!LO:TX:t=P:problem=kreska pseudotaktowa	!
1C/	-pem	1G/	.	1c\	.	1e\	.
*	*	*Xlig	*	*	*	*	*
00r	.	2r	.	2r	.	1g\	Pa-
.	.	1c\	Pa-	1e\	Pa-	.	.
=59	=59	=59	=59	=59	=59	=59	=59
.	.	.	.	.	.	1a\	-tris
!	!	!LO:TX:t=P:problem=kreska pseudotaktowa	!	!	!	!	!
.	.	2d\	-tris	1f\	-tris	.	.
.	.	2r	.	.	.	2f\	im-
.	.	1B-\	im-	1d\	im-	4f\	-pe-
!	!	!	!	!	!	!LO:TX:t=P:problem=kreska pseudotaktowa	!
.	.	.	.	.	.	4e\	.
=60	=60	=60	=60	=60	=60	=60	=60
.	.	.	.	.	.	4d\	.
.	.	.	.	.	.	4e\	.
!	!	!LO:TX:t=P:problem=kreska pseudotaktowa	!	!LO:TX:t=P:problem=kreska pseudotaktowa	!	!	!
.	.	2A/	-pe-	2c\	-pe-	1f\	.
1C/	Pa-	2G/	.	2.c\	-ri-	.	.
!	!	!	!	!	!	!LO:TX:t=P:problem=kreska pseudotaktowa	!
.	.	4A/	.	.	.	2e\	.
!	!	!LO:TX:t=P:problem=kreska pseudotaktowa	!	!	!	!	!
.	.	4G/	.	4c\	-j	.	.
=61	=61	=61	=61	=61	=61	=61	=61
2D/	-tris	4F/	.	(2A\	.	2.d\	-ri-
.	.	4E/	.	.	.	.	.
1BB-/	.	4.D/	.	2B-\)	.	.	.
.	.	.	.	.	.	4d\	-j
!	!	!LO:TX:t=P:problem=kreska pseudotaktowa	!	!	!	!	!
.	.	8D/	-ri-	.	.	.	.
*	*	*	*	*custos:d	*	*	*
!	!	!	!	!LO:TX:t=P:problem=kreska pseudotaktowa	!	!	!
*	*	*	*	*	*	*	*ij
.	.	2C/	-j	1c\	Pa-	1e\	Pa-
!LO:TX:t=P:problem=kreska pseudotaktowa	!	!	!	!	!	!	!
*	*	*	*ij	*	*	*	*
2AA/	im-	2c\	Pa-	.	.	.	.
!	!	!	!	!LO:LB:g=original	!	!	!
=62	=62	=62	=62	=62	=62	=62	=62
*	*	*	*	*xywh-#92:7393,1974,6052,978	*	*	*
*lig	*	*	*	*	*	*	*
1BB-/	-pe-	2.B-\	-tris	2d,\	-tris	2d\	-tris
*	*	*	*	*	*	*custos:e	*
!	!	!	!	!	!	!LO:TX:t=P:problem=kreska pseudotaktowa	!
.	.	.	.	1B-\	.	2g\	im-
.	.	4d\	im-	.	.	.	.
*	*	*	*	*	*	*xywh-#5:7245,1778,6052,1037	*
!	!	!	!	!	!	!LO:LB:g=original	!
1.C/	.	1.c\	-pe-	.	.	2e\	-pe-
!	!	!	!	!LO:TX:t=P:problem=kreska pseudotaktowa	!	!	!
.	.	.	.	2A/	im-	1f\	.
*Xlig	*	*	*	*	*	*	*
=63	=63	=63	=63	=63	=63	=63	=63
.	.	.	.	2.G/	-pe-	.	.
2C/	-ri-	2c\	-ri-	.	.	2e\	-ri-
.	.	.	.	4G/	-ri-	.	.
1FF/;	-j.	1c\;	-j	1A\;<	-j	1f\;<	-j
*	*	*	*Xij	*	*	*	*Xij
!LO:LB:g=original	!	!LO:LB:g=original	!	!	!	!	!
=64||	=64||	=64||	=64||	=64||	=64||	=64||	=64||
*xywh-#257:7238,3123,6045,1136	*	*xywh-#170:750,1841,6187,968	*	*	*	*	*
*M2/1	*	*M2/1	*	*M2/1	*	*M2/1	*
*met(C|)	*	*met(C|)	*	*met(C|)	*	*met(C|)	*
!	!	!LO:TX:t=P:problem=przed 1r custos c - pomocniczo dźwięk Alto	!	!	!	!	!
!LO:TX:t=P:problem=kreska pseudotaktowa	!	!	!	!LO:TX:t=P:problem=kreska pseudotaktowa	!	!	!
1r	.	1r	.	0r	.	1c\	Ac-
*	*	*	*	*	*	*lig	*
1F\	Ac-	1F/	Ac-	.	.	1f\	-ce-
=65	=65	=65	=65	=65	=65	=65	=65
*lig	*	*	*	*	*	*	*
1E\	-ce-	1c\	-ce-	2C/	Ac-	1g\	.
.	.	.	.	4c\	-ce-	.	.
.	.	.	.	4B-\	.	.	.
*	*	*	*	*	*	*Xlig	*
!	!	!LO:TX:t=P:problem=kreska pseudotaktowa	!	!	!	!	!
1F\	.	1c\	-de,	4A\	.	2f\	-de
.	.	.	.	4G/	.	.	.
!	!	!	!	!LO:TX:t=P:problem=kreska pseudotaktowa	!	!	!
.	.	.	.	2A/	.	4f\	nun-
!	!	!	!	!	!	!LO:TX:t=P:problem=kreska pseudotaktowa	!
.	.	.	.	.	.	4e\	.
*Xlig	*	*	*	*	*	*	*
=66	=66	=66	=66	=66	=66	=66	=66
2BB-/	-de	1d\	nun-	2B-\	-de	4d\	.
.	.	.	.	.	.	4e\	.
4BB-/	.	.	.	4B-\	.	1f\	.
!LO:TX:t=P:problem=kreska pseudotaktowa	!	!	!	!	!	!	!
4AA/	nun-	.	.	4c\	.	.	.
2.GG/	.	1B-\	-ci-	2d\	nun-	.	.
!	!	!	!	!	!	!LO:TX:t=P:problem=kreska pseudotaktowa	!
.	.	.	.	4c\	.	2e\	-ci-
!	!	!	!	!LO:TX:t=P:problem=kreska pseudotaktowa	!	!	!
4GG/	-ci-	.	.	4B-\	.	.	.
=67	=67	=67	=67	=67	=67	=67	=67
!LO:TX:t=P:problem=kreska pseudotaktowa	!	!LO:TX:t=P:problem=kreska pseudotaktowa	!	!	!	!	!
1FF/	-a	1c\	-a,	2.A\	.	1f\	-a
.	.	.	.	4A\	-ci-	.	.
!	!	!	!	!LO:TX:t=P:problem=kreska pseudotaktowa	!	!	!
1BB-/	dic	1d\	dic	1B-\	-a	2d\	dic
!	!	!	!	!	!	!LO:TX:t=P:problem=kreska pseudotaktowa	!
.	.	.	.	.	.	2.f\	a-
=68	=68	=68	=68	=68	=68	=68	=68
*lig	*	*	*	*	*	*	*
1D\	A-	1f\	A-	1A\	dic	.	.
.	.	.	.	.	.	4g\	.
.	.	.	.	.	.	2.a\	.
!	!	!LO:TX:t=P:problem=kreska pseudotaktowa	!	!	!	!	!
1F\	.	1c\	-ue	1A\	Au-	.	.
.	.	.	.	.	.	4g\	.
!	!	!	!	!	!	!LO:TX:t=P:problem=kreska pseudotaktowa	!
.	.	.	.	.	.	2f\	-ue
*Xlig	*	*	*	*	*	*	*
=69	=69	=69	=69	=69	=69	=69	=69
*	*	*lig	*	*	*	*	*
2BB-/	-ue	1d\	co-	2B-\	-e	2f\	co-
4B-\	co-	.	.	1f\	co-	1d\	-mi-
!LO:TX:t=P:problem=kreska pseudotaktowa	!	!	!	!	!	!	!
4A\	.	.	.	.	.	.	.
*	*	*col	*	*	*	*	*
4G\	.	2.B-\	.	.	.	.	.
4F\	.	.	.	.	.	.	.
4.G\	-mi-	.	.	2e\	-mi-	4c/	-nus,
*	*	*Xlig	*	*	*	*	*
!	!	!	!	!	!	!LO:TX:t=P:problem=kreska pseudotaktowa	!
.	.	4B-\	-mi-	.	.	4B-/	.
8G\	-nus	.	.	.	.	.	.
*	*	*Xcol	*	*	*	*	*
=70	=70	=70	=70	=70	=70	=70	=70
*	*	*	*	*custos:f	*	*	*
!	!	!	!	!LO:TX:t=P:problem=kreska pseudotaktowa	!	!	!
!LO:TX:t=P:problem=kreska pseudotaktowa	!	!LO:TX:t=P:problem=kreska pseudotaktowa	!	!	!	!	!
1F\,	.	1c\	-nús,	1f\	-nús	2A/	.
*	*	*	*	*	*	*custos:a	*
!	!	!	!	!	!	!LO:TX:t=P:problem=kreska pseudotaktowa	!
.	.	.	.	.	.	2a\	dic
*	*	*	*	*xywh-#92:7369,2572,6028,1075	*	*xywh-#5:7306,2511,6016,940	*
!	!	!LO:TX:t=P:problem=kreska pseudotaktowa	!	!LO:LB;g=original	!	!LO:LB:g=original	!
1.D\	Dic	1d\	dic	1f\	dic	4a\	Ple-
.	.	.	.	.	.	4g\	.
.	.	.	.	.	.	4f\	.
.	.	.	.	.	.	8e\L	.
!	!	!	!	!	!	!LO:TX:t=P:problem=kreska pseudotaktowa	!
.	.	.	.	.	.	8d\J	.
=71	=71	=71	=71	=71	=71	=71	=71
!	!	!LO:TX:t=P:problem=kreska pseudotaktowa	!	!	!	!	!
.	.	1e\	Ple-	1.e\	Ple-	2g\	.
!LO:TX:t=P:problem=kreska pseudotaktowa	!	!	!	!	!	!	!
!LO:TX:t=P:problem=# błędnie AA zamiast C	!	!	!	!	!	!	!
2C#X/	ple-	.	.	.	.	2a\	-na
!	!	!LO:TX:t=P:problem=kreska pseudotaktowa	!	!	!	!	!
2D/	-na	1f\	-na	.	.	1.a\	gra-
4F\	gra-	.	.	1d\	-na	.	.
4G\	.	.	.	.	.	.	.
=72	=72	=72	=72	=72	=72	=72	=72
*	*	*lig	*	*	*	*	*
4A\	.	1e\	gra-	.	.	.	.
4B-\	.	.	.	.	.	.	.
*custos:F	*	*	*	*	*	*	*
!LO:TX:t=P:problem=kreska pseudotaktowa	!	!	!	!	!	!	!
!	!	!	!	!	!	!LO:TX:t=P:problem=kreska pseudotaktowa	!
2c\	.	.	.	1c\	gra-	2g\	-ti-
*xywh-#257:7268,3895,6115,956	*	*	*	*	*	*	*
!LO:LB:g=original	!	!	!	!	!	!	!
*	*	*col	*	*	*	*	*
2F\	.	2.d\	.	.	.	(2a\	-a
!	!	!	!	!LO:TX:t=P:problem=kreska pseudotaktowa	!	!	!
!	!	!	!	!LO:TX:a:t=P:problem= ♮ above	!	!	!
!	!	!	!	!LO:N:acc=#	!	!	!
4.G\	.	.	.	2Bn\	-ti-	4.g\)	.
*	*	*Xlig	*	*	*	*	*
.	.	4d\	-ti-	.	.	.	.
8G\	-ti-	.	.	.	.	8g\	gra-
*	*	*Xcol	*	*	*	*	*
=73	=73	=73	=73	=73	=73	=73	=73
*	*	*custos:A	*	*	*	*	*
!	!	!LO:TX:t=P:problem=kreska pseudotaktowa	!	!	!	!	!
!	!	!LO:TX:a:t=P:problem=♮ below	!	!	!	!	!
!	!	!LO:SIC:v:o=1e#X\	!	!	!	!	!
!LO:TX:t=P:problem=kreska pseudotaktowa	!	!	!	!	!	!LO:TX:t=P:problem=kreska pseudotaktowa	!
1C/	-a,	1e	-a,	2c\	-a	1g\	-ti-
!	!	!	!	!LO:TX:t=P:problem=kreska pseudotaktowa	!	!	!
.	.	.	.	2r	.	.	.
*	*	*xywh-#170:900,2617,4960,841	*	*	*	*	*
!	!	!LO:LB:g=original	!	!	!	!	!
2F\	dic	1A\	dic	2A\	dic	2f\	-a
(1F\	te-	.	.	1c\	.	1a\	dic
=74	=74	=74	=74	=74	=74	=74	=74
.	.	(<1c\	te-	.	.	.	.
!LO:TX:t=P:problem=kreska pseudotaktowa	!	!	!	!LO:TX:t=P:problem=kreska pseudotaktowa	!	!	!
2E\)	.	.	.	2G/	te-	2g\	te-
!	!	!	!	!	!	!LO:TX:t=P:problem=kreska pseudotaktowa	!
2D\	-cu(m)	1d\)	.	1.B-\	-cum	1f\	-cum
*	*ij	*	*	*	*	*	*
2D\	dic	.	.	.	.	.	.
=75	=75	=75	=75	=75	=75	=75	=75
!	!	!LO:TX:t=P:problem=kreska pseudotaktowa	!	!	!	!	!
1F\	te-	1c\	-cum	.	.	1f\	.
!	!	!	!	!LO:TX:t=P:problem=kreska pseudotaktowa	!	!	!
.	.	.	.	2A/	.	.	.
*	*	*lig	*	*	*	*	*
2G\	.	1B-\	.	2G/	Do-	2.d\	Do-
4D/	-cu(m)	.	.	4F/	.	.	.
*	*Xij	*	*	*	*	*	*
4E\	.	.	.	4G/	.	4d\	-mi-
=76	=76	=76	=76	=76	=76	=76	=76
!	!	!	!	!	!	!LO:TX:t=P:problem=kreska pseudotaktowa	!
4F\	.	1A\	.	2.A\	.	1c\	-nus
4C/	Do-	.	.	.	.	.	.
1F\	.	.	.	.	.	.	.
!	!	!	!	!LO:TX:t=P:problem=kreska pseudotaktowa	!	!	!
.	.	.	.	4B-\	.	.	.
*	*	*Xlig	*	*	*	*	*
.	.	2.G/	Do-	2.c\	-mi-	2r	.
!LO:TX:t=P:problem=kreska pseudotaktowa	!	!	!	!	!	!	!
2E\	.	.	.	.	.	2g\	et
.	.	4G/	-mi-	4c\	-nus	.	.
=77	=77	=77	=77	=77	=77	=77	=77
!	!	!LO:TX:t=P:problem=kreska pseudotaktowa	!	!	!	!	!
2.F\	.	1F/,	-nus,	1c\	.	1a\	dic
4E\	.	.	.	.	.	.	.
!	!	!	!	!LO:TX:t=P:problem=kreska pseudotaktowa	!	!	!
4D/	.	1A\	et	1d\	.	1f\	ne
4C/	.	.	.	.	.	.	.
4.D/	.	.	.	.	.	.	.
!LO:TX:t=P:problem=kreska pseudotaktowa	!	!	!	!	!	!	!
8D/	-mi-	.	.	.	.	.	.
=78	=78	=78	=78	=78	=78	=78	=78
*	*	*	*	*	*	*lig	*
!	!	!LO:TX:t=P:problem=kreska pseudotaktowa	!	!	!	!	!
2C/	-nus,	1c\	dic	2G/	et	1e\	ti-
2C/	et	.	.	4A/	dic	.	.
.	.	.	.	4G/	.	.	.
*	*	*lig	*	*	*	*col	*
4D/	dic,	1B-\	ne	4F/	ne	2.d\	.
4C/	.	.	.	4E/	.	.	.
4D/	.	.	.	4F/	.	.	.
*	*	*	*	*	*	*Xlig	*
!LO:TX:t=P:problem=kreska pseudotaktowa	!	!	!	!LO:TX:t=P:problem=kreska pseudotaktowa	!	!	!
4E\	.	.	.	4G/	.	4d\	-me-
*	*	*	*	*	*	*Xcol	*
=79	=79	=79	=79	=79	=79	=79	=79
!	!	!	!	!	!	!LO:TX:t=P:problem=kreska pseudotaktowa	!
2F\	.	1A\	.	4A\	.	1c\	-as
.	.	.	.	4B-\	.	.	.
1F\	et	.	.	4c\	.	.	.
.	.	.	.	4d\	.	.	.
*	*	*Xlig	*	*	*	*	*
*	*	*lig	*	*	*	*	*
.	.	1G/	.	2.c\	ti-	2r	.
!LO:TX:t=P:problem=kreska pseudotaktowa	!	!	!	!	!	!LO:TX:t=P:problem=kreska pseudotaktowa	!
*	*	*	*	*	*	*	*ij
2E\	dic	.	.	.	.	2e\	et
*	*	*	*	*custos:d	*	*	*
!	!	!	!	!LO:TX:t=P:problem=kreska pseudotaktowa	!	!	!
.	.	.	.	4c\	-me-	.	.
!	!	!	!	!LO:LB:g=original	!	!	!
=80	=80	=80	=80	=80	=80	=80	=80
*	*	*	*	*xywh-#92:7387,3278,5967,1038	*	*	*
*	*	*	*	*	*	*custos:a	*
4D/	ne	1F/	.	2d\	-as	2f\	dic
8C/L	.	.	.	.	.	.	.
!LO:TX:a:t=P:problem=custos A	!	!	!	!	!	!	!
8BB-/J	.	.	.	.	.	.	.
*xywh-#258:692,397,6261,1046	*	*	*	*	*	*xywh-#5:7294,3148,6028,1012	*
!LO:PB:g=original	!	!	!	!	!	!LO:LB:g=original	!
!LO:TX:t=P:problem=kreska pseudotaktowa	!	!	!	!	!	!	!
*	*	*	*	*	*ij	*	*
2.AA/	.	.	.	1c\	et	2.a\	ne
*	*	*Xlig	*	*	*	*	*
!	!	!LO:TX:t=P:problem=kreska pseudotaktowa	!	!	!	!	!
.	.	1E/	.	.	.	.	.
4BB-/	.	.	.	.	.	8g\L	.
.	.	.	.	.	.	8f\J	.
4C/	.	.	.	1c\	dic	1e\	.
4D/	.	.	.	.	.	.	.
=81	=81	=81	=81	=81	=81	=81	=81
2C/	.	1.G/	ti-	.	.	.	.
!LO:TX:t=P:problem=kreska pseudotaktowa	!	!	!	!LO:TX:t=P:problem=kreska pseudotaktowa	!	!	!
2BB-/	.	.	.	2d\	ne	1f\	ti-
2.C/	ti-	.	.	2.c\	ti-	.	.
!	!	!	!	!	!	!LO:TX:t=P:problem=kreska pseudotaktowa	!
.	.	2G/	-me-	.	.	2e\	-me-
4C/	-me-	.	.	4c\	-me-	.	.
=82	=82	=82	=82	=82	=82	=82	=82
!LO:N:vis=1	!	!LO:N:vis=1	!	!LO:N:vis=1	!	!	!
0FF/;	-as.	0A\;<	-as.	0c\;<	as	0f\;<	as
*	*	*	*	*	*Xij	*	*Xij
!	!	!LO:LB;g=original	!	!	!	!	!
=83||	=83||	=83||	=83||	=83||	=83||	=83||	=83||
*	*	*xywh-#170:660,3326,6259,847	*	*	*	*	*
*M2/1	*	*M2/1	*	*M2/1	*	*M2/1	*
*met(C|)	*	*met(C|)	*	*met(C|)	*	*met(C|)	*
1F\	Au-	1A\	Au-	0c\	Au-	1f\	Au-
!LO:TX:t=P:problem=kreska pseudotaktowa	!	!LO:TX:t=P:problem=kreska pseudotaktowa	!	!	!	!LO:TX:t=P:problem=kreska pseudotaktowa	!
1E\	-dit	1G/	-dit	.	.	1g\	-dit
=84	=84	=84	=84	=84	=84	=84	=84
!	!	!	!	!LO:TX:t=P:problem=kreska pseudotaktowa	!	!	!
2.D/	et	1A\	et	1d\	-dit	1f\	et
!LO:TX:t=P:problem=kreska pseudotaktowa	!	!	!	!	!	!	!
4C/	.	.	.	.	.	.	.
*	*	*lig	*	*	*	*lig	*
4BB-/	.	1B-\	ſuſ-	1d\	et	1g\	Suſ-
4GG/	.	.	.	.	.	.	.
!LO:TX:t=P:problem=kreska pseudotaktowa	!	!	!	!	!	!	!
2.G\	.	.	.	.	.	.	.
=85	=85	=85	=85	=85	=85	=85	=85
*	*	*col	*	*	*	*col	*
.	.	2.A/	.	2.c\	ſuſ-	2.a\	.
4C/	.	.	.	.	.	.	.
1F\	ſuſ-	.	.	.	.	.	.
*	*	*Xlig	*	*	*	*Xlig	*
.	.	4A/	-ci-	4c\	-ci-	8g\L	.
.	.	.	.	.	.	8f\J	.
*	*	*Xcol	*	*	*	*Xcol	*
!	!	!LO:TX:t=P:problem=kreska pseudotaktowa	!	!LO:TX:t=P:problem=kreska pseudotaktowa	!	!	!
.	.	1G/	-pit	1c\	-pit	2.g\	ci-
!LO:TX:t=P:problem=kreska pseudotaktowa	!	!	!	!	!	!	!
2E\	-ci-	.	.	.	.	.	.
!	!	!	!	!	!	!LO:TX:t=P:problem=kreska pseudotaktowa	!
.	.	.	.	.	.	4g\L	-pit
=86	=86	=86	=86	=86	=86	=86	=86
!	!	!	!	!	!	!LO:TX:t=P:problem=kreska pseudotaktowa	!
2F\	-pit	1A\	pu-	2c\	.	1f\	Pu-
!LO:TX:t=P:problem=kreska pseudotaktowa	!	!	!	!	!	!	!
2D/	.	.	.	2.d\	pu-	.	.
*	*	*lig	*	*	*	*	*
2.D/	pu-	1F/	-el-	.	.	2f\	-el-
.	.	.	.	8c\L	-el-	.	.
.	.	.	.	8B-\J	.	.	.
!	!	!	!	!LO:TX:t=P:problem=kreska pseudotaktowa	!	!	!
.	.	.	.	2A\	.	1f\	-la
4C/	-el-	.	.	.	.	.	.
=87	=87	=87	=87	=87	=87	=87	=87
2BB-/	.	1G/	.	2d\	-la	.	.
!LO:TX:t=P:problem=kreska pseudotaktowa	!	!	!	!	!	!	!
2C/	.	.	.	1c\	nun-	1e\	.
*	*	*Xlig	*	*	*	*	*
!	!	!LO:TX:t=P:problem=kreska pseudotaktowa	!	!	!	!	!
2AA/	.	1F/	-la	.	.	.	.
2BB-/	.	.	.	1B-\	.	1d\	nun-
=88	=88	=88	=88	=88	=88	=88	=88
*	*	*lig	*	*	*	*	*
2GG/	.	1E/	nun-	.	.	.	.
*custos:BB	*	*	*	*	*	*	*
!LO:TX:t=P:problem=kreska pseudotaktowa	!	!	!	!	!	!	!
!	!	!	!	!LO:TX:t=P:problem=kreska pseudotaktowa	!	!LO:TX:t=P:problem=kreska pseudotaktowa	!
2AA/	-la	.	.	2A/	.	2c/	.
*xywh-#258:889,1133,6076,974	*	*	*	*	*	*	*
!LO:LB:g=original	!	!	!	!	!	!	!
*	*	*	*	*lig	*	*	*
4BB-/	nun-	1D/	.	1d\	.	2B-/	.
4C/	.	.	.	.	.	.	.
2D/	.	.	.	.	.	2A/	.
*	*	*Xlig	*	*	*	*	*
=89	=89	=89	=89	=89	=89	=89	=89
*	*	*	*	*col	*	*	*
2.C/	-ci-	2.E/	.	2.G/	.	2.c/	.
*	*	*	*	*Xlig	*	*	*
!	!	!	!	!LO:TX:t=P:problem=kreska pseudotaktowa	!	!LO:TX:t=P:problem=4c poprawione na 4B	!
4C/	-um	4E/	-ci-	4G/	-ci-	4B-/	-ci-
*	*	*	*	*Xcol	*	*	*
*	*	*	*	*custos:c	*	*	*
!LO:TX:t=P:problem=kreska pseudotaktowa	!	!LO:TX:t=P:problem=kreska pseudotaktowa	!	!	!	!LO:TX:t=P:problem=kreska pseudotaktowa	!
1FF/	.	1F/,	-um	2A/	-um	1c\	-um
*	*	*	*	*xywh-#92:7418,3931,5864,1057	*	*	*
!	!	!	!	!LO:LB;g=original	!	!	!
.	.	.	.	2.c\	cre-	.	.
=90	=90	=90	=90	=90	=90	=90	=90
*	*	*	*	*	*	*custos:f	*
!	!	!	!	!	!	!LO:TX:t=P:problem=kreska pseudotaktowa	!
0r	.	1A\	cre-	.	.	0r	.
.	.	.	.	4B-\	.	.	.
.	.	.	.	4A/	.	.	.
!	!	!	!	!LO:TX:t=P:problem=kreska pseudotaktowa	!	!	!
.	.	.	.	4G/	.	.	.
*	*	*	*	*lig	*	*	*
!	!	!LO:TX:t=P:problem=kreska pseudotaktowa	!	!	!	!	!
.	.	1c\	-dit	1A\	.	.	.
!	!	!	!	!	!	!LO:LB;g=original	!
=91	=91	=91	=91	=91	=91	=91	=91
*	*	*	*	*	*	*xywh-#5:7306,3870,6022,921	*
!	!	!	!	!LO:TX:t=P:problem=kreska pseudotaktowa	!	!	!
1D\	Cre-	1d\	et	1B-\	.	1f\	cre-
*	*	*lig	*	*Xlig	*	*	*
2F\	.	1c\	con-	2A/	-dit	2a\	-dit
!LO:TX:t=P:problem=kreska pseudotaktowa	!	!	!	!	!	!LO:TX:t=P:problem=kreska pseudotaktowa	!
2F\	-dit	.	.	2f\	et	2a\	.
=92	=92	=92	=92	=92	=92	=92	=92
*	*	*col	*	*	*	*	*
!	!	!	!	!	!LO:MO:mod=con-	!	!
4G\	et	2.B-\	.	2.d\	ſuſ-	4.g\	.
8F\L	.	.	.	.	.	.	.
8E\J	.	.	.	.	.	8g\	et
!	!	!	!	!	!	!LO:TX:t=P:problem=kreska pseudotaktowa	!
4D\	con-	.	.	.	.	2f\	con-
*	*	*Xlig	*	*	*	*	*
!LO:TX:t=P:problem=kreska pseudotaktowa	!	!	!	!LO:TX:t=P:problem=kreska pseudotaktowa	!	!	!
4E\	.	4B-\	-ci-	4d\	-ci-	.	.
*	*	*Xcol	*	*	*	*	*
!	!	!LO:TX:t=P:problem=kreska pseudotaktowa	!	!	!	!	!
4F\	.	1A\	-pit	2c,\	-pit,	2f\	-ci-
4E\	.	.	.	.	.	.	.
4D/	.	.	.	1d\	.	1f\	-pit
!LO:TX:t=P:problem=kreska pseudotaktowa	!	!	!	!	!	!	!
4C/	.	.	.	.	.	.	.
=93	=93	=93	=93	=93	=93	=93	=93
*	*	*custos:A	*	*	*	*	*
4.BB-/	-ci-	1G/	Fi-	.	.	.	.
8BB-/	-pit	.	.	.	.	.	.
1C/	et	.	.	1c\	et	1e\	et
*	*	*xywh-#170:966,3988,3950,883	*	*	*	*	*
!	!	!LO:LB;g=original	!	!	!	!	!
.	.	1A\	.	.	.	.	.
!LO:TX:t=P:problem=kreska pseudotaktowa	!	!	!	!LO:TX:t=P:problem=kreska pseudotaktowa	!	!LO:TX:t=P:problem=kreska pseudotaktowa	!
2D/	.	.	.	2A/	pa-	2f#X\	pa-
=94	=94	=94	=94	=94	=94	=94	=94
4GG/	pa-	1G/	.	1B-\	.	4g\	.
4AA/	.	.	.	.	.	4f\	.
4BB-/	.	.	.	.	.	2.d\	-rit
4C/	.	.	.	.	.	.	.
*	*	*lig	*	*	*	*	*
4D/	.	1F/	.	2A\	.	.	.
4C/	.	.	.	.	.	4e\	.
4BB-/	.	.	.	1d\	-rit	1f\	Fi-
!LO:TX:t=P:problem=kreska pseudotaktowa	!	!	!	!	!	!	!
4AA/	-rit	.	.	.	.	.	.
=95	=95	=95	=95	=95	=95	=95	=95
*	*	*col	*	*	*	*	*
2GG/	Fi-	2.G/	.	.	.	.	.
!	!	!	!	!LO:TX:t=P:problem=kreska pseudotaktowa	!	!	!
4.C/	-li-	.	.	2c\	Fi-	2e\	-li-
*	*	*Xlig	*	*	*	*	*
.	.	4G/	-li-	.	.	.	.
!LO:TX:t=P:problem=kreska pseudotaktowa	!	!	!	!	!	!	!
8C/	-um	.	.	.	.	.	.
*	*	*Xcol	*	*	*	*	*
!	!	!LO:TX:t=P:problem=kreska pseudotaktowa	!	!	!	!LO:TX:t=P:problem=kreska pseudotaktowa	!
1FF/,	.	1A\,	-um	1c\	-li-	1f\	-u(m),
=96	=96	=96	=96	=96	=96	=96	=96
*	*	*lig	*	*	*	*	*
!LO:TX:t=P:problem=kreska pseudotaktowa	!	!	!	!LO:TX:t=P:problem=kreska pseudotaktowa	!	!	!
1F\	ſed	1c\	ſed	1A\	-u(m)	0f\	ſed
4BB-/	ad-	1d\	.	1.B-\	Sed	.	.
4C/	.	.	.	.	.	.	.
4D/	.	.	.	.	.	.	.
4E\	.	.	.	.	.	.	.
*	*	*Xlig	*	*	*	*	*
=97	=97	=97	=97	=97	=97	=97	=97
!	!	!LO:TX:t=P:problem=kreska pseudotaktowa	!	!	!	!	!
2.F\	.	1c\	.	.	.	1.f\	ad-
.	.	.	.	4A/	ad-	.	.
*custos:D	*	*	*	*	*	*	*
!LO:TX:t=P:problem=kreska pseudotaktowa	!	!	!	!	!	!	!
!	!	!	!	!LO:TX:t=P:problem=kreska pseudotaktowa	!	!	!
4E\	.	.	.	4G/	.	.	.
*xywh-#258:901,1821,6022,926	*	*	*	*	*	*	*
!LO:LB:g=original	!	!	!	!	!	!	!
2.D/	.	1F/	ad-	1A\	-mi-	.	.
!	!	!	!	!	!	!LO:TX:t=P:problem=kreska pseudotaktowa	!
.	.	.	.	.	.	2d\	-mi-
!LO:TX:t=P:problem=kreska pseudotaktowa	!	!	!	!	!	!	!
4C/	.	.	.	.	.	.	.
=98	=98	=98	=98	=98	=98	=98	=98
*	*	*lig	*	*	*	*	*
!	!	!	!	!LO:TX:t=P:problem=kreska pseudotaktowa	!	!	!
4BB-/	.	1G/	-mi-	1B-\	.	1.d\	-ra-
4GG/	.	.	.	.	.	.	.
1G\	.	.	.	.	.	.	.
.	.	1A\	.	1.A\	-ra-	.	.
!LO:TX:t=P:problem=kreska pseudotaktowa	!	!	!	!	!	!	!
!LO:TX:a:t=P:problem=# below	!	!	!	!	!	!LO:TX:t=P:problem=kreska pseudotaktowa	!
2F#\	-mi-	.	.	.	.	2d\	-bi-
*	*	*Xlig	*	*	*	*	*
=99	=99	=99	=99	=99	=99	=99	=99
*	*	*lig	*	*	*	*	*
4G\	-ra-	1B-\	.	.	.	2d\	-lem
4GG/	.	.	.	.	.	.	.
*	*	*	*	*	*	*	*ij
4BB-/	.	.	.	1G/	.	1d\	ſed
!LO:TX:t=P:problem=kreska pseudotaktowa	!	!	!	!	!	!	!
4C/	.	.	.	.	.	.	.
4D/	.	1A\	.	.	.	.	.
4E\	.	.	.	.	.	.	.
!	!	!	!	!LO:TX:t=P:problem=kreska pseudotaktowa	!	!	!
2F\	.	.	.	2F/	.	1c\	ad-
*	*	*Xlig	*	*	*	*	*
=100	=100	=100	=100	=100	=100	=100	=100
2C/	.	1.G/	-ra-	2E/	.	.	.
!LO:TX:t=P:problem=kreska pseudotaktowa	!	!	!	!	!	!LO:TX:t=P:problem=kreska pseudotaktowa	!
2BB-/	.	.	.	1F/	.	2d/	-mi-
2.C/	.	.	.	.	.	2.c/	-ra-
.	.	2G/	-bi-	2E/	-bi-	.	.
4C/	-bi-	.	.	.	.	4c/	-bi-
=101	=101	=101	=101	=101	=101	=101	=101
*	*	*	*	*custos:F#	*	*	*
!LO:N:vis=1	!	!LO:N:vis=1	!	!LO:N:vis=1	!	!	!
0FF/;	-lem	0F/;	-lem.	0F/;	lem.	0c\;<	lem
*	*	*	*	*	*	*	*Xij
!	!	!LO:PB:g=original	!	!LO:LB:g=original	!	!LO:PB:g=original	!
=102||	=102||	=102||	=102||	=102||	=102||	=102||	=102||
*	*	*xywh-#170:7268,429,6109,1034	*	*xywh-#93:805,419,6160,1062	*	*xywh-#6:689,546,6226,955	*
*	*	*	*	*	*	*clefC3	*
*	*	*	*	*	*	*k[b-]	*
*M2/1	*	*M2/1	*	*M2/1	*	*M2/1	*
*met(C|)	*	*met(C|)	*	*met(C|)	*	*met(C|)	*
*	*	*	*	*custos:F#	*	*	*
!LO:TX:t=P:problem=kreska pseudotaktowa	!	!LO:TX:t=P:problem=kreska pseudotaktowa	!	!	!	!	!
1D\	Qui	1A\	QVi	1F#X/	Qui	1d\	Qui
!	!	!	!	!LO:TX:t=P:problem=kreska pseudotaktowa	!	!	!
1GG/	no-	1G/	no-	1B-\	no-	0d\	no-
=103	=103	=103	=103	=103	=103	=103	=103
!LO:TX:t=P:problem=kreska pseudotaktowa	!	!LO:TX:t=P:problem=kreska pseudotaktowa	!	!	!	!	!
1FF#X/	-bis	1A\	-bis	2A/	-bis	.	.
.	.	.	.	1A\	.	.	.
*lig	*	*lig	*	*	*	*	*
!	!	!	!	!	!	!LO:TX:t=P:problem=kreska pseudotaktowa	!
1GG/	tri-	1B-\	tri-	.	.	1d\	-bis
.	.	.	.	1G/	tri-	.	.
=104	=104	=104	=104	=104	=104	=104	=104
*col	*	*col	*	*	*	*	*
2.AA/	.	2.A/	.	.	.	1.c\	tri-
.	.	.	.	1F/	-bu-	.	.
*Xlig	*	*Xlig	*	*	*	*	*
4BB-/	.	4A/	-bu-	.	.	.	.
*Xcol	*	*Xcol	*	*	*	*	*
!	!	!LO:TX:t=P:problem=kreska pseudotaktowa	!	!	!	!	!
2.C/	-bu-	1G/	-at	.	.	.	.
!	!	!	!	!LO:TX:t=P:problem=kreska pseudotaktowa	!	!	!
.	.	.	.	2E/	.	2c/	-bu-
!LO:TX:t=P:problem=kreska pseudotaktowa	!	!	!	!	!	!	!
4C/	-at	.	.	.	.	.	.
=105	=105	=105	=105	=105	=105	=105	=105
!	!	!	!	!	!	!LO:TX:t=P:problem=kreska pseudotaktowa	!
2FF,/	.	1A\	pec-	1F/	-at	1c\	-at
2F\	pec-	.	.	.	.	.	.
*	*	*lig	*	*	*	*	*
4D/	-ca-	1F/	-ca-	2A/	pec-	1d\	pec-
4C/	.	.	.	.	.	.	.
4BB-/	.	.	.	1B-\	-ca-	.	.
*custos:G	*	*	*	*	*	*	*
!LO:TX:t=P:problem=kreska pseudotaktowa	!	!	!	!	!	!	!
4AA/	.	.	.	.	.	.	.
!LO:LB:g=original	!	!	!	!	!	!	!
=106	=106	=106	=106	=106	=106	=106	=106
*xywh-#258:943,2479,5968,921	*	*	*	*	*	*	*
4GG/	.	1G/	.	.	.	1.d\	-ca-
4AA/	.	.	.	.	.	.	.
!	!	!	!	!LO:TX:t=P:problem=kreska pseudotaktowa	!	!	!
4BB-/	.	.	.	2B-\	-ti	.	.
4C/	.	.	.	.	.	.	.
*	*	*Xlig	*	*	*	*	*
!	!	!LO:TX:t=P:problem=kreska pseudotaktowa	!	!	!	!	!
!	!	!LO:TX:t=P:problem=1G poprawione na 1 F	!	!	!	!	!
4D/	.	1F/	-ti	2.A/	Ve-	.	.
4AA/	.	.	.	.	.	.	.
!	!	!	!	!	!	!LO:TX:t=P:problem=kreska pseudotaktowa	!
1D\	.	.	.	.	.	2d\	-ti
.	.	.	.	4A/	-ni-	.	.
=107	=107	=107	=107	=107	=107	=107	=107
*	*	*lig	*	*	*	*	*
.	.	1E/	Ve-	2G/	-a(m)	2.e\	Ve-
!LO:TX:t=P:problem=kreska pseudotaktowa	!	!	!	!LO:TX:t=P:problem=kreska pseudotaktowa	!	!	!
2C/	.	.	.	2A/	pec-	.	.
.	.	.	.	.	.	4c/	.
2BB-/	.	1D/	.	2.B-/	-ca-	2.d\	.
2BB-/	-ti	.	.	.	.	.	.
!	!	!	!	!LO:TX:t=P:problem=kreska pseudotaktowa	!	!LO:TX:t=P:problem=kreska pseudotaktowa	!
.	.	.	.	4A/	.	4d\	-ni-
*	*	*Xlig	*	*	*	*	*
=108	=108	=108	=108	=108	=108	=108	=108
2.C/	Ve-	2.E/	.	4G/	.	1c\,	-am
.	.	.	.	4F/	-ti	.	.
.	.	.	.	4.G/	Ve-	.	.
!LO:TX:t=P:problem=kreska pseudotaktowa	!	!	!	!	!	!	!
4C/	-ni-	4E/	-ni-	.	.	.	.
.	.	.	.	8G/	-ni-	.	.
!	!	!LO:TX:t=P:problem=kreska pseudotaktowa	!	!LO:TX:t=P:problem=kreska pseudotaktowa	!	!	!
1FF/,	-am	1F/	-am	0A\	-am	2c/	re-
.	.	.	.	.	.	2.f\	-a-
=109	=109	=109	=109	=109	=109	=109	=109
2FF/	re-	1F/	re-	.	.	.	.
.	.	.	.	.	.	4g\	.
1F\	-a-	.	.	.	.	1a\	.
.	.	1c\	-a-	1r	.	.	.
4E\	.	.	.	.	.	4g\	.
!LO:TX:t=P:problem=kreska pseudotaktowa	!	!	!	!	!	!LO:TX:t=P:problem=kreska pseudotaktowa	!
4D\	.	.	.	.	.	4f\	.
=110	=110	=110	=110	=110	=110	=110	=110
!	!	!LO:TX:t=P:problem=kreska pseudotaktowa	!	!	!	!	!
2E\	.	1c\	-tus	2r	.	2g\	.
!LO:TX:t=P:problem=kreska pseudotaktowa	!	!	!	!LO:TX:t=P:problem=kreska pseudotaktowa	!	!	!
2F\	-tur	.	.	2A/	re-	2f\	-tus
*	*	*lig	*	*	*	*	*
2.BB-/	di-	1d\	di-	4B-\	-a-	1.f\	di-
.	.	.	.	4c\	.	.	.
.	.	.	.	1d\	-tus	.	.
4AA/	.	.	.	.	.	.	.
=111	=111	=111	=111	=111	=111	=111	=111
*	*	*col	*	*	*	*	*
2.GG/	.	2.B-\	.	.	.	.	.
!	!	!	!	!	!	!LO:TX:t=P:problem=kreska pseudotaktowa	!
.	.	.	.	4c\	di-	2e\	-lu-
*	*	*Xlig	*	*	*	*	*
!	!	!	!	!LO:TX:t=P:problem=kreska pseudotaktowa	!	!	!
4GG/	-lu-	4B-\	-lu-	4B-\	.	.	.
*	*	*Xcol	*	*	*	*	*
!LO:TX:t=P:problem=kreska pseudotaktowa	!	!LO:TX:t=P:problem=kreska pseudotaktowa	!	!	!	!	!
1FF/	-at	1c\	-at	1A\	.	2f\	-at
.	.	.	.	.	.	1c\	et
=112	=112	=112	=112	=112	=112	=112	=112
*	*	*custos:G	*	*custos:B	*	*	*
!LO:TX:t=P:problem=kreska pseudotaktowa	!	!	!	!LO:TX:t=P:problem=kreska pseudotaktowa	!	!	!
0r	.	1F/	et	1A\	-lu-	.	.
.	.	.	.	.	.	1d\	.
*	*	*xywh-#170:7304,1216,5976,865	*	*xywh-#93:1167,1149,5823,926	*	*	*
!	!	!LO:LB:g=original	!	!LO:LB:g=original	!	!	!
.	.	1G/	do-	1B-\	-at	.	.
!	!	!	!	!	!	!LO:TX:t=P:problem=kreska pseudotaktowa	!
.	.	.	.	.	.	2e\	do-
=113	=113	=113	=113	=113	=113	=113	=113
!	!	!LO:TX:t=P:problem=kreska pseudotaktowa	!	!	!	!	!
1FF/	et	1A\	-net	2c\	et	4f\	-net
.	.	.	.	.	.	4e\	.
!	!	!	!	!LO:TX:t=P:problem=kreska pseudotaktowa	!	!	!
.	.	.	.	2d\	do-	4d\	Pa-
*	*	*	*	*	*	*custos:B	*
!	!	!	!	!	!	!LO:TX:t=P:problem=kreska pseudotaktowa	!
.	.	.	.	.	.	4c/	.
*	*	*	*	*	*	*xywh-#6:1017,1314,5907,803	*
!	!	!	!	!	!	!LO:LB:g=original	!
1GG/	do-	1B-\	Pa-	2.d\	-net	4B-/	.
.	.	.	.	.	.	4G/	.
.	.	.	.	.	.	1g\	.
.	.	.	.	4B-\	Pa-	.	.
=114	=114	=114	=114	=114	=114	=114	=114
!LO:TX:t=P:problem=kreska pseudotaktowa	!	!	!	!	!	!	!
1AA/	-net	1c\	.	2.A/	.	.	.
.	.	.	.	.	.	4f\	.
!	!	!	!	!LO:TX:t=P:problem=kreska pseudotaktowa	!	!LO:TX:t=P:problem=kreska pseudotaktowa	!
.	.	.	.	4G/	.	4e\	.
*	*	*lig	*	*	*	*	*
4BB-/	.	1B-\	.	4F/	.	2.d\	.
4C/	.	.	.	4E/	.	.	.
4D/	.	.	.	4F/	.	.	.
!	!	!	!	!LO:TX:t=P:problem=kreska pseudotaktowa	!	!	!
4E\	Pa-	.	.	4G/	.	4d\	tri-
=115	=115	=115	=115	=115	=115	=115	=115
4F\	.	1A\	.	4A/	.	2c,/	-am
4E\	.	.	.	8B-\L	.	.	.
.	.	.	.	8c\J	.	.	.
4D/	.	.	.	1d\	.	1f\	Pa-
!LO:TX:t=P:problem=kreska pseudotaktowa	!	!	!	!	!	!	!
!LO:TX:a:t=P:problem=custos BB	!	!	!	!	!	!	!
4C/	.	.	.	.	.	.	.
*xywh-#258:961,3131,5280,950	*	*	*	*	*	*	*
!LO:LB;g=original	!	!	!	!	!	!	!
*	*	*Xlig	*	*	*	*	*
2BB-/	.	2.G/	.	.	.	.	.
!	!	!	!	!LO:TX:t=P:problem=kreska pseudotaktowa	!	!LO:TX:t=P:problem=kreska pseudotaktowa	!
4.C/	.	.	.	2c\	-tri-	2e\	-tri-
.	.	4G/	-tri-	.	.	.	.
8C/	-tri-	.	.	.	.	.	.
=116	=116	=116	=116	=116	=116	=116	=116
!LO:TX:t=P:problem=kreska pseudotaktowa	!	!LO:TX:t=P:problem=kreska pseudotaktowa	!	!LO:TX:t=P:problem=kreska pseudotaktowa	!	!	!
1FF/	-am	1A\	-a(m)	1c\	-am	1f\	-am
*	*	*lig	*	*	*	*	*
0r	.	1c\	in	1e\	in	2g\	.
.	.	.	.	.	.	1a\	in
=117	=117	=117	=117	=117	=117	=117	=117
*	*	*	*	*lig	*	*	*
.	.	1d\	.	1f\	ar-	.	.
.	.	.	.	.	.	4g\	ar-
!	!	!	!	!	!	!LO:TX:t=P:problem=kreska pseudotaktowa	!
.	.	.	.	.	.	4f\	.
*lig	*	*Xlig	*	*	*	*	*
*	*	*lig	*	*	*	*	*
1C/	in	1c\	ar-	1e\	.	2g\	.
.	.	.	.	.	.	1c\	.
*	*	*	*	*Xlig	*	*	*
=118	=118	=118	=118	=118	=118	=118	=118
1D\	.	1F/	.	2d\	-ce	.	.
!	!	!	!	!	!	!LO:TX:t=P:problem=kreska pseudotaktowa	!
!	!	!	!	!LO:TX:t=P:problem=kreska pseudotaktowa	!	!LO:N:acc=#	!
.	.	.	.	2d\	in	2Bn/	-ce
*Xlig	*	*Xlig	*	*	*	*	*
*	*	*lig	*	*	*	*	*
2C/	ar-	1G/	-ce	2G/	ar-	2c/	Sy-
!LO:TX:t=P:problem=kreska pseudotaktowa	!	!	!	!	!	!	!
2GG/	-ce	.	.	2B-\	-cae	4d\	-de-
.	.	.	.	.	.	4e\	.
=119	=119	=119	=119	=119	=119	=119	=119
!	!	!LO:TX:t=P:problem=kreska pseudotaktowa	!	!	!	!	!
4AA/	Sy-	1F/	.	2.c\	Sy-	4f\	.
4GG/	.	.	.	.	.	4e\	.
4AA/	.	.	.	.	.	4c/	.
!LO:TX:t=P:problem=kreska pseudotaktowa	!	!	!	!LO:TX:t=P:problem=kreska pseudotaktowa	!	!LO:TX:t=P:problem=kreska pseudotaktowa	!
4BB-/	.	.	.	4c\	-de-	4d\	.
*	*	*Xlig	*	*	*	*	*
!	!	!	!	!LO:TX:t=P:problem=kreska pseudotaktowa	!	!	!
4C/	.	1E/	sy-	1c\	-ru(m)	2.e\	.
4GG/	.	.	.	.	.	.	.
1C/	.	.	.	.	.	.	.
.	.	.	.	.	.	4f\	.
=120	=120	=120	=120	=120	=120	=120	=120
*	*	*lig	*	*	*	*	*
!	!	!	!	!	!	!LO:TX:t=P:problem=kreska pseudotaktowa	!
.	.	1D/	.	1d\	in	1g\	rum
!LO:TX:t=P:problem=kreska pseudotaktowa	!	!	!	!	!	!	!
!LO:SIC:v:o=2BB#X/	!	!	!	!	!	!	!
2BBn	-de-	.	.	.	.	.	.
*	*	*col	*	*	*	*	*
2C,/	-rum	2.E/	.	1c\	ar-	4g\	in
.	.	.	.	.	.	4f\	.
2G\	in	.	.	.	.	4e\	.
*	*	*Xlig	*	*	*	*	*
!	!	!	!	!	!	!LO:TX:t=P:problem=kreska pseudotaktowa	!
.	.	4E/	-de-	.	.	4d\	.
*	*	*Xcol	*	*	*	*	*
=121	=121	=121	=121	=121	=121	=121	=121
!	!	!	!	!LO:TX:t=P:problem=kreska pseudotaktowa	!	!	!
4A\	ar-	00.F/;	-rum	1c\	-ce	2c/	ar-
4G\	.	.	.	.	.	.	.
4F\	.	.	.	.	.	2.f\	.
!LO:TX:t=P:problem=kreska pseudotaktowa	!	!	!	!	!	!	!
4E\	.	.	.	.	.	.	.
2.D/	.	.	.	4d\	Sy-	.	.
.	.	.	.	4e\	.	4e\	.
.	.	.	.	4f\	.	4c/	.
!	!	!	!	!	!	!LO:TX:t=P:problem=kreska pseudotaktowa	!
4C/	.	.	.	4e\	.	4e\	.
=122	=122	=122	=122	=122	=122	=122	=122
2BB-/	-ce	.	.	2d\	.	2.f\	.
*	*	*	*	*custos:B	*	*	*
!	!	!	!	!LO:TX:t=P:problem=kreska pseudotaktowa	!	!	!
!LO:TX:t=P:problem=kreska pseudotaktowa	!	!	!	!	!	!	!
2AA/	.	.	.	2c\	.	.	.
*	*	*	*	*	*	*custos:d	*
!	!	!	!	!LO:LB:g=original	!	!	!
!	!	!	!	!	!	!LO:TX:t=P:problem=kreska pseudotaktowa	!
.	.	.	.	.	.	4e\	.
*	*	*	*	*xywh-#93:1152,1849,5209,865	*	*xywh-#6:1017,1915,5569,864	*
!	!	!	!	!	!	!LO:LB;g=original	!
1.BB-/	Sy-	.	.	2B-\	.	2d\	.
!	!	!	!	!LO:TX:t=P:problem=kreska pseudotaktowa	!	!LO:TX:t=P:problem=kreska pseudotaktowa	!
.	.	.	.	2c\	.	2c/	-ce
=123	=123	=123	=123	=123	=123	=123	=123
.	.	.	.	2.d\	.	2.B-/	Sy-
2BB-/	-de-	.	.	.	.	.	.
.	.	.	.	4d\	-de-	4B-/	-de-
!LO:N:vis=0	!	!	!	!	!	!LO:N:vis=0	!
1FF/;	-rum.	.	.	1c\;<	-rum	1A/;	-rum
!LO:LB:g=original	!	!	!	!	!	!	!
=124||	=124||	=124||	=124||	=124||	=124||	=124||	=124||
*xywh-#258:937,3795,5639,1004	*	*	*	*	*	*	*
*M2/1	*	*M2/1	*	*M2/1	*	*M2/1	*
*met(C|)	*	*met(C|)	*	*met(C|)	*	*met(C|)	*
*	*	*lig	*	*lig	*	*	*
!	!	!	!	!	!	!LO:TX:t=P:problem=kreska pseudotaktowa	!
4FF/	A-	1F/	A-	1A\	A-	1c\	A-
4GG/	.	.	.	.	.	.	.
4AA/	.	.	.	.	.	.	.
!LO:TX:t=P:problem=kreska pseudotaktowa	!	!	!	!	!	!	!
4BB-/	.	.	.	.	.	.	.
*	*	*custos:D	*	*	*	*	*
!	!	!	!	!LO:TX:t=P:problem=kreska pseudotaktowa	!	!	!
4C/	.	1E/	.	1G/	.	2c/	-men
4D/	.	.	.	.	.	.	.
4E/	.	.	.	.	.	1c/	A-
4C/	.	.	.	.	.	.	.
*	*	*Xlig	*	*Xlig	*	*	*
!	!	!LO:LB:g=original	!	!	!	!	!
=125	=125	=125	=125	=125	=125	=125	=125
*	*	*xywh-#170:7226,1884,4575,919	*	*	*	*	*
!LO:TX:t=P:problem=kreska pseudotaktowa	!	!	!	!	!	!	!
1F\	.	1D/	.	2F/	.	.	.
!	!	!	!	!	!	!LO:TX:t=P:problem=♮ above	!
!	!	!	!	!	!	!LO:N:acc=#	!
.	.	.	.	4E/	.	2Bn/	-men
!	!	!	!	!LO:TX:t=P:problem=kreska pseudotaktowa	!	!	!
.	.	.	.	4D/	.	.	.
!	!	!	!	!	!	!LO:TX:t=P:problem=kreska pseudotaktowa	!
4E\	.	(>1E/	.	2.G/	.	0c\	.
4D\	.	.	.	.	.	.	.
4E\	.	.	.	.	.	.	.
!LO:TX:t=P:problem=kreska pseudotaktowa	!	!	!	!	!	!	!
4C/	.	.	.	4F/	.	.	.
=126	=126	=126	=126	=126	=126	=126	=126
2.G\	.	1C/)	-men	2.E/	.	.	.
!	!	!	!	!LO:TX:t=P:problem=kreska pseudotaktowa	!	!	!
4F\	.	.	.	4D/	.	.	.
4E\	.	(>1G/	.	2C/	-men	2r	.
4D\	.	.	.	.	.	.	.
!LO:TX:t=P:problem=kreska pseudotaktowa	!	!	!	!	!	!LO:TX:t=P:problem=kreska pseudotaktowa	!
*	*	*	*	*	*ij	*	*
2C/	.	.	.	1c\	A-	2e\	Al-
=127	=127	=127	=127	=127	=127	=127	=127
*lig	*	*	*	*	*	*	*
1D\	.	1F/)	Al-	.	.	4d\	-le-
.	.	.	.	.	.	4e\	.
!	!	!	!	!LO:TX:t=P:problem=kreska pseudotaktowa	!	!	!
!	!	!	!	!LO:N:acc=#	!	!	!
.	.	.	.	2Bn\	-men	4f\	.
!	!	!	!	!	!	!LO:TX:t=P:problem=kreska pseudotaktowa	!
.	.	.	.	.	.	4d\	.
*col	*	*	*	*	*Xij	*	*
2.C/	.	(1G/	-le-	1.c\	Al-	4e\	.
.	.	.	.	.	.	4f\	.
.	.	.	.	.	.	1g\	.
*Xlig	*	*	*	*	*	*	*
4BB-/	.	.	.	.	.	.	.
*Xcol	*	*	*	*	*	*	*
=128	=128	=128	=128	=128	=128	=128	=128
2AA/	.	1A\)	.	.	.	.	.
!	!	!	!	!	!	!LO:TX:t=P:problem=kreska pseudotaktowa	!
!LO:TX:t=P:problem=kreska pseudotaktowa	!	!	!	!	!	!LO:TX:t=P:problem=# above	!
2D/	-men	.	.	1d\	-le-	2f#X\	-lu-
*	*	*lig	*	*	*	*	*
4GG/	Al-	1B-\	.	.	.	1.g\	-ia
4AA/	.	.	.	.	.	.	.
!	!	!	!	!LO:TX:t=P:problem=kreska pseudotaktowa	!	!	!
4BB-/	.	.	.	2d\	-lu-	.	.
!LO:TX:t=P:problem=kreska pseudotaktowa	!	!	!	!	!	!	!
4GG/	.	.	.	.	.	.	.
=129	=129	=129	=129	=129	=129	=129	=129
4AA/	.	1A\	.	1.c\	-ia	.	.
4GG/	-le-	.	.	.	.	.	.
!	!	!	!	!	!	!LO:TX:t=P:problem=kreska pseudotaktowa	!
*	*	*	*	*	*	*	*ij
4AA/	.	.	.	.	.	2f\	Al-
4BB-/	.	.	.	.	.	.	.
*	*	*Xlig	*	*	*	*	*
*	*	*lig	*	*	*	*	*
2C/	.	1G/	.	.	.	2e\	.
!LO:TX:t=P:problem=kreska pseudotaktowa	!	!	!	!	!	!	!
*	*	*	*	*	*ij	*	*
2BB-/	-lu-	.	.	2d\	Al-	1f\	-le-
=130	=130	=130	=130	=130	=130	=130	=130
1C/	-ia.	1E/	-lu-	1c\	-le-	.	.
.	.	.	.	.	.	2e\	.
*	*	*Xlig	*	*	*	*	*
*	*	*lig	*	*lig	*	*lig	*
00FF/;	.	0F/	-ia.	0c\;<	-lu-	0f\;<	-lu-
=131	=131	=131	=131	=131	=131	=131	=131
.	.	.	.	.	.	.	.
.	.	0F/;	.	0c\	-ia	0f\	-ia
*	*	*Xlig	*	*Xlig	*Xij	*Xlig	*Xij
==	==	==	==	==	==	==	==
*-	*-	*-	*-	*-	*-	*-	*-
!!!system-decoration: [(s1,s2,s3,s4)]
!!!RDF**kern: > = above
!!!RDF**kern: < = below
!!!EED: Leszek Kubiak
!!!EEV: 2021-03-06
!!!ENC: Katarzyna Serwa
!!!END: 2021-02-24
!!!ENC-iiif: Mateusz Mrugas
!!!END-iiif: 2022-09-05
